%
(1001)
(T1  D=10 CR=0 - ZMIN=-22 - flat end mill)
G90 G94
G17
G21
G28 G91 Z0
G90

(Pocket1)
M9
T1 M6
S10000 M3
G54
M8
G0 X38.442 Y23.296
Z12
Z5
G1 Z4.3 F333.3
X38.446 Y23.29 Z4.262
X38.457 Y23.272 Z4.23
X38.474 Y23.245 Z4.208
X38.493 Y23.212 Z4.2
X39.433 Y21.674 Z4.174
G2 X39.549 Y21.462 Z4.171 I-2.134 J-1.303
G1 X40.58 Y19.335 Z4.138
X40.583 Y19.329
X41.347 Y17.742 Z4.113
G2 X41.377 Y17.677 Z4.112 I-2.252 J-1.085
G1 X41.466 Y17.479 Z4.109
G2 X41.533 Y17.312 Z4.106 I-2.283 J-1.019
G1 X42.972 Y13.346 Z4.046
G2 X43.044 Y13.111 Z4.043 I-2.35 J-0.853
G1 X44.006 Y9.343 Z3.988
G2 X44.02 Y9.286 Z3.987 I-2.422 J-0.618
G1 X44.111 Y8.889 Z3.981
G2 X44.146 Y8.702 Z3.978 I-2.436 J-0.56
G1 X44.744 Y4.735 Z3.922
G2 X44.756 Y4.644 Z3.92 I-2.472 J-0.373
G1 X44.779 Y4.446 Z3.918
G2 X44.792 Y4.288 Z3.915 I-2.484 J-0.281
G1 X44.997 Y0.123 Z3.856
G2 Y-0.123 Z3.853 I-2.497 J-0.123
G1 X44.792 Y-4.288 Z3.794
G2 X44.771 Y-4.507 Z3.791 I-2.497 J0.123
G1 X44.689 Y-5.102 Z3.782
G2 X44.684 Y-5.132 I-2.476 J0.342
G1 X44.146 Y-8.702 Z3.731
G2 X44.111 Y-8.889 Z3.728 I-2.472 J0.373
G1 X44.02 Y-9.286 Z3.722
G2 X44.006 Y-9.343 Z3.721 I-2.436 J0.56
G1 X43.044 Y-13.111 Z3.666
G2 X42.972 Y-13.346 Z3.663 I-2.422 J0.618
G1 X41.533 Y-17.312 Z3.603
G2 X41.445 Y-17.524 Z3.6 I-2.35 J0.853
G1 X41.147 Y-18.156 Z3.59
G2 X41.138 Y-18.177 I-2.262 J1.064
G1 X39.819 Y-20.915 Z3.547
G2 X39.807 Y-20.939 Z3.546 I-2.252 J1.085
G1 X39.54 Y-21.479 Z3.538
G2 X39.433 Y-21.674 Z3.535 I-2.241 J1.108
G1 X37.341 Y-25.1 Z3.478
G2 X37.297 Y-25.169 Z3.477 I-2.134 J1.303
G1 X37.163 Y-25.372 Z3.473
G2 X37.065 Y-25.512 Z3.471 I-2.09 J1.372
G1 X34.532 Y-28.849 Z3.411
G2 X34.406 Y-29.002 Z3.409 I-1.991 J1.511
G1 X34.027 Y-29.427 Z3.401
G2 X33.994 Y-29.464 Z3.4 I-1.866 J1.664
G1 X31.785 Y-31.843 Z3.354
G2 X31.72 Y-31.911 Z3.353 I-1.832 J1.701
X31.69 Y-31.941 Z3.352 I-1.768 J1.768
G1 X31.105 Y-32.505 Z3.341
G2 X31.023 Y-32.581 Z3.339 I-1.737 J1.798
G1 X28.34 Y-34.949 Z3.288
G2 X28.24 Y-35.032 Z3.286 I-1.654 J1.874
G1 X27.937 Y-35.273 Z3.281
G2 X27.846 Y-35.343 Z3.279 I-1.555 J1.958
G1 X25.28 Y-37.195 Z3.235
G2 X25.251 Y-37.216 Z3.234 I-1.463 J2.027
G1 X24.458 Y-37.771 Z3.22
G2 X24.284 Y-37.882 Z3.217 I-1.434 J2.048
G1 X22.697 Y-38.808 Z3.191
G2 X22.688 Y-38.813 I-1.26 J2.159
G1 X21.102 Y-39.729 Z3.165
G2 X21.069 Y-39.747 I-1.25 J2.165
G1 X20.672 Y-39.968 Z3.158
G2 X20.529 Y-40.042 Z3.156 I-1.217 J2.184
G1 X19.919 Y-40.333 Z3.147
G2 X19.874 Y-40.354 Z3.146 I-1.074 J2.258
G1 X16.915 Y-41.689 Z3.1
G2 X16.861 Y-41.713 Z3.099 I-1.029 J2.279
G1 X16.542 Y-41.848 Z3.094
G2 X16.41 Y-41.9 Z3.092 I-0.975 J2.302
G1 X15.936 Y-42.069 Z3.085
G2 X15.891 Y-42.085 Z3.084 I-0.843 J2.354
G1 X12.719 Y-43.153 Z3.037
G2 X12.665 Y-43.171 Z3.036 I-0.798 J2.369
G1 X12.268 Y-43.294 Z3.03
G2 X12.098 Y-43.341 Z3.028 I-0.744 J2.387
G1 X10.655 Y-43.681 Z3.007
G2 X10.635 Y-43.686 I-0.574 J2.433
G1 X8.113 Y-44.259 Z2.97
G2 X7.966 Y-44.287 Z2.968 I-0.554 J2.438
G1 X7.57 Y-44.353 Z2.962
G2 X7.478 Y-44.366 Z2.961 I-0.407 J2.467
G1 X4.305 Y-44.769 Z2.916
G2 X4.273 Y-44.773 Z2.915 I-0.315 J2.48
G1 X3.48 Y-44.863 Z2.904
G2 X3.294 Y-44.878 Z2.901 I-0.283 J2.484
G1 X2.501 Y-44.908 Z2.89
G2 X2.466 Y-44.91 Z2.889 I-0.097 J2.498
G1 X-0.706 Y-44.989 Z2.845
G2 X-0.869 Y-44.987 Z2.842 I-0.062 J2.499
G1 X-1.662 Y-44.955 Z2.831
G2 X-1.746 Y-44.95 Z2.83 I0.101 J2.498
G1 X-4.919 Y-44.715 Z2.785
G2 X-5.012 Y-44.706 Z2.783 I0.185 J2.493
G1 X-5.805 Y-44.617 Z2.772
G2 X-5.957 Y-44.595 Z2.77 I0.279 J2.484
G1 X-9.129 Y-44.041 Z2.724
G2 X-9.169 Y-44.034 I0.43 J2.463
G1 X-9.962 Y-43.882 Z2.712
G2 X-10.157 Y-43.836 Z2.71 I0.47 J2.455
G1 X-11.743 Y-43.399 Z2.686
G2 X-11.755 Y-43.395 I0.665 J2.41
G1 X-13.653 Y-42.861 Z2.658
G2 X-13.685 Y-42.852 I0.677 J2.407
G1 X-14.166 Y-42.71 Z2.651
G2 X-14.329 Y-42.655 Z2.648 I0.709 J2.397
G1 X-15.122 Y-42.36 Z2.636
G2 X-15.164 Y-42.344 I0.872 J2.343
G1 X-18.091 Y-41.195 Z2.591
G2 X-18.155 Y-41.169 Z2.59 I0.913 J2.327
G1 X-18.4 Y-41.065 Z2.586
G2 X-18.529 Y-41.006 Z2.584 I0.978 J2.301
G1 X-19.322 Y-40.615 Z2.572
G2 X-19.356 Y-40.598 Z2.571 I1.106 J2.242
G1 X-21.735 Y-39.378 Z2.533
G2 X-21.79 Y-39.349 I1.141 J2.225
G1 X-22.583 Y-38.917 Z2.52
G2 X-22.741 Y-38.824 Z2.517 I1.195 J2.196
G1 X-25.913 Y-36.782 Z2.464
G2 X-26.058 Y-36.682 Z2.461 I1.353 J2.102
G1 X-26.851 Y-36.088 Z2.447
G2 X-26.912 Y-36.041 Z2.446 I1.498 J2.002
G1 X-29.291 Y-34.144 Z2.403
G2 X-29.355 Y-34.091 Z2.402 I1.559 J1.955
G1 X-29.894 Y-33.631 Z2.392
G2 X-30.017 Y-33.519 Z2.39 I1.622 J1.902
G1 X-32.65 Y-30.953 Z2.338
G2 X-32.74 Y-30.86 Z2.336 I1.745 J1.79
G1 X-33.301 Y-30.253 Z2.324
G2 X-33.38 Y-30.163 Z2.322 I1.836 J1.697
G1 X-35.377 Y-27.784 Z2.278
G2 X-35.436 Y-27.711 Z2.277 I1.915 J1.607
G1 X-36.053 Y-26.918 Z2.263
G2 X-36.143 Y-26.794 Z2.261 I1.974 J1.534
G1 X-37.769 Y-24.414 Z2.22
G2 X-37.785 Y-24.39 Z2.219 I2.064 J1.41
G1 X-38.314 Y-23.597 Z2.206
G2 X-38.391 Y-23.475 Z2.204 I2.08 J1.387
G1 X-38.613 Y-23.096 Z2.198
G2 X-38.651 Y-23.028 Z2.197 I2.157 J1.264
G1 X-40.237 Y-20.12 Z2.15
G2 X-40.28 Y-20.038 Z2.148 I2.195 J1.197
G1 X-40.618 Y-19.36 Z2.138
G2 X-40.682 Y-19.219 Z2.136 I2.237 J1.115
G1 X-42.026 Y-16.046 Z2.087
G2 X-42.063 Y-15.956 Z2.085 I2.302 J0.975
G1 X-42.363 Y-15.162 Z2.073
G2 X-42.412 Y-15.018 Z2.071 I2.338 J0.884
G1 X-43.396 Y-11.845 Z2.024
G2 X-43.418 Y-11.77 Z2.023 I2.388 J0.74
G1 X-43.637 Y-10.976 Z2.011
G2 X-43.676 Y-10.814 Z2.009 I2.41 J0.664
G1 X-44.164 Y-8.435 Z1.975
G2 X-44.168 Y-8.414 Z1.974 I2.449 J0.502
G1 X-44.461 Y-6.921 Z1.953
G2 X-44.489 Y-6.743 Z1.95 I2.453 J0.481
G1 X-44.597 Y-5.855 Z1.938
G2 X-44.604 Y-5.798 Z1.937 I2.482 J0.303
G1 X-44.916 Y-2.625 Z1.892
G2 X-44.926 Y-2.477 Z1.89 I2.488 J0.245
G1 X-44.957 Y-1.684 Z1.878
G2 X-44.959 Y-1.586 Z1.877 I2.498 J0.097
G1 Y1.586 Z1.832
G2 X-44.957 Y1.684 Z1.831 I2.5
G1 X-44.926 Y2.477 Z1.819
G2 X-44.916 Y2.625 Z1.817 I2.498 J-0.097
G1 X-44.604 Y5.798 Z1.772
G2 X-44.597 Y5.855 Z1.771 I2.488 J-0.245
G1 X-44.489 Y6.743 Z1.759
G2 X-44.461 Y6.921 Z1.756 I2.482 J-0.303
G1 X-44.168 Y8.414 Z1.735
G2 X-44.164 Y8.435 Z1.734 I2.453 J-0.481
G1 X-43.676 Y10.814 Z1.7
G2 X-43.637 Y10.976 Z1.698 I2.449 J-0.502
G1 X-43.418 Y11.77 Z1.686
G2 X-43.396 Y11.845 Z1.685 I2.41 J-0.664
G1 X-42.412 Y15.018 Z1.638
G2 X-42.363 Y15.162 Z1.636 I2.388 J-0.74
G1 X-42.063 Y15.956 Z1.624
G2 X-42.026 Y16.046 Z1.622 I2.338 J-0.884
G1 X-40.682 Y19.219 Z1.574
G2 X-40.612 Y19.372 Z1.571 I2.302 J-0.975
G1 X-40.211 Y20.165 Z1.559
G2 X-40.174 Y20.234 Z1.558 I2.231 J-1.127
G1 X-38.651 Y23.028 Z1.512
G2 X-38.613 Y23.096 Z1.511 I2.195 J-1.197
G1 X-38.391 Y23.475 Z1.505
G2 X-38.307 Y23.608 Z1.503 I2.157 J-1.264
G1 X-37.237 Y25.194 Z1.476
G2 X-37.228 Y25.208 I2.073 J-1.398
G1 X-36.14 Y26.798 Z1.448
G2 X-36.05 Y26.921 Z1.446 I2.063 J-1.411
G1 X-35.436 Y27.711 Z1.432
G2 X-35.377 Y27.784 Z1.431 I1.974 J-1.535
G1 X-33.38 Y30.163 Z1.387
G2 X-33.301 Y30.253 Z1.385 I1.915 J-1.607
G1 X-32.74 Y30.86 Z1.373
G2 X-32.65 Y30.953 Z1.372 I1.836 J-1.697
G1 X-30.017 Y33.519 Z1.319
G2 X-29.894 Y33.631 Z1.317 I1.745 J-1.79
G1 X-29.355 Y34.091 Z1.307
G2 X-29.291 Y34.144 Z1.306 I1.622 J-1.902
G1 X-26.883 Y36.064 Z1.262
G2 X-26.821 Y36.112 Z1.261 I1.559 J-1.955
G1 X-26.056 Y36.683 Z1.248
G2 X-25.913 Y36.782 Z1.245 I1.496 J-2.003
G1 X-22.741 Y38.824 Z1.192
G2 X-22.583 Y38.917 Z1.189 I1.353 J-2.102
G1 X-21.79 Y39.349 Z1.176
G2 X-21.735 Y39.378 I1.195 J-2.196
G1 X-19.356 Y40.598 Z1.138
G2 X-19.322 Y40.615 Z1.137 I1.141 J-2.225
G1 X-18.529 Y41.006 Z1.125
G2 X-18.4 Y41.065 Z1.123 I1.106 J-2.242
G1 X-18.155 Y41.169 Z1.119
G2 X-18.091 Y41.195 Z1.118 I0.978 J-2.301
G1 X-15.164 Y42.344 Z1.073
G2 X-15.122 Y42.36 I0.913 J-2.327
G1 X-14.329 Y42.655 Z1.061
G2 X-14.144 Y42.716 Z1.058 I0.872 J-2.343
G1 X-12.558 Y43.169 Z1.035
G2 X-12.548 Y43.172 I0.687 J-2.404
G1 X-10.834 Y43.655 Z1.009
G2 X-10.804 Y43.663 I0.677 J-2.407
G1 X-10.139 Y43.841 Z0.999
G2 X-9.962 Y43.882 Z0.997 I0.648 J-2.415
G1 X-9.169 Y44.034 Z0.985
G2 X-9.129 Y44.041 I0.47 J-2.455
G1 X-5.957 Y44.595 Z0.939
G2 X-5.805 Y44.617 Z0.937 I0.43 J-2.463
G1 X-5.012 Y44.706 Z0.926
G2 X-4.919 Y44.715 Z0.924 I0.279 J-2.484
G1 X-1.746 Y44.95 Z0.879
G2 X-1.662 Y44.955 Z0.878 I0.185 J-2.493
G1 X-0.869 Y44.987 Z0.867
G2 X-0.706 Y44.989 Z0.865 I0.101 J-2.498
G1 X2.466 Y44.91 Z0.82
G2 X2.501 Y44.908 Z0.819 I-0.062 J-2.499
G1 X3.294 Y44.878 Z0.808
G2 X3.494 Y44.862 Z0.805 I-0.097 J-2.498
G1 X5.08 Y44.672 Z0.782
G2 X5.1 Y44.67 I-0.297 J-2.482
G1 X7.479 Y44.366 Z0.748
G2 X7.57 Y44.353 Z0.747 I-0.316 J-2.48
G1 X7.966 Y44.287 Z0.741
G2 X8.116 Y44.258 Z0.739 I-0.407 J-2.467
G1 X11.684 Y43.443 Z0.687
G2 X11.728 Y43.433 I-0.557 J-2.437
G1 X12.125 Y43.334 Z0.681
G2 X12.268 Y43.294 Z0.679 I-0.6 J-2.427
G1 X12.665 Y43.171 Z0.673
G2 X12.72 Y43.153 Z0.672 I-0.744 J-2.387
G1 X16.047 Y42.03 Z0.622
G2 X16.1 Y42.012 I-0.799 J-2.369
G1 X16.419 Y41.897 Z0.617
G2 X16.542 Y41.848 Z0.615 I-0.851 J-2.351
G1 X16.861 Y41.713 Z0.61
G2 X16.917 Y41.689 Z0.609 I-0.975 J-2.302
G1 X20.089 Y40.253 Z0.56
G2 X20.142 Y40.229 Z0.559 I-1.031 J-2.278
G1 X20.539 Y40.038 Z0.553
G2 X20.694 Y39.956 Z0.55 I-1.083 J-2.253
G1 X21.884 Y39.277 Z0.531
G2 X21.895 Y39.271 I-1.239 J-2.171
G1 X23.481 Y38.355 Z0.505
G2 X23.504 Y38.342 Z0.504 I-1.25 J-2.165
G1 X24.34 Y37.847 Z0.491
G2 X24.516 Y37.732 Z0.488 I-1.273 J-2.152
G1 X26.059 Y36.635 Z0.461
G2 X26.075 Y36.623 I-1.449 J-2.037
G1 X27.847 Y35.341 Z0.43
G2 X27.937 Y35.273 Z0.428 I-1.465 J-2.026
G1 X28.24 Y35.032 Z0.423
G2 X28.34 Y34.949 Z0.421 I-1.555 J-1.958
G1 X31.023 Y32.581 Z0.37
G2 X31.105 Y32.505 Z0.369 I-1.654 J-1.874
G1 X31.69 Y31.941 Z0.357
G2 X31.785 Y31.843 Z0.355 I-1.737 J-1.798
G1 X33.994 Y29.464 Z0.309
G2 X34.027 Y29.427 Z0.308 I-1.832 J-1.701
G1 X34.406 Y29.002 Z0.3
G2 X34.532 Y28.849 Z0.298 I-1.866 J-1.664
G1 X37.065 Y25.512 Z0.238
G2 X37.163 Y25.372 Z0.236 I-1.991 J-1.511
G1 X37.297 Y25.169 Z0.232
G2 X37.341 Y25.1 Z0.231 I-2.09 J-1.372
G1 X39.433 Y21.674 Z0.174
G2 X39.549 Y21.462 Z0.171 I-2.134 J-1.303
G1 X40.58 Y19.335 Z0.138
X40.583 Y19.329
X41.347 Y17.742 Z0.113
G2 X41.377 Y17.677 Z0.112 I-2.252 J-1.085
G1 X41.466 Y17.479 Z0.109
G2 X41.533 Y17.312 Z0.106 I-2.283 J-1.019
G1 X42.972 Y13.346 Z0.046
G2 X43.044 Y13.111 Z0.043 I-2.35 J-0.853
G1 X44.006 Y9.343 Z-0.012
G2 X44.02 Y9.286 Z-0.013 I-2.422 J-0.618
G1 X44.111 Y8.889 Z-0.019
G2 X44.146 Y8.702 Z-0.022 I-2.436 J-0.56
G1 X44.744 Y4.735 Z-0.078
G2 X44.756 Y4.644 Z-0.08 I-2.472 J-0.373
G1 X44.779 Y4.446 Z-0.082
G2 X44.792 Y4.288 Z-0.085 I-2.484 J-0.281
G1 X44.997 Y0.123 Z-0.144
G2 Y-0.123 Z-0.147 I-2.497 J-0.123
G1 X44.792 Y-4.288 Z-0.206
G2 X44.771 Y-4.507 Z-0.209 I-2.497 J0.123
G1 X44.689 Y-5.102 Z-0.218
G2 X44.684 Y-5.132 I-2.476 J0.342
G1 X44.146 Y-8.702 Z-0.269
G2 X44.111 Y-8.889 Z-0.272 I-2.472 J0.373
G1 X44.02 Y-9.286 Z-0.278
G2 X44.006 Y-9.343 Z-0.279 I-2.436 J0.56
G1 X43.044 Y-13.111 Z-0.334
G2 X42.972 Y-13.346 Z-0.337 I-2.422 J0.618
G1 X41.533 Y-17.312 Z-0.397
G2 X41.445 Y-17.524 Z-0.4 I-2.35 J0.853
G1 X41.147 Y-18.156 Z-0.41
G2 X41.138 Y-18.177 I-2.262 J1.064
G1 X39.819 Y-20.915 Z-0.453
G2 X39.807 Y-20.939 Z-0.454 I-2.252 J1.085
G1 X39.54 Y-21.479 Z-0.462
G2 X39.433 Y-21.674 Z-0.465 I-2.241 J1.108
G1 X37.341 Y-25.1 Z-0.522
G2 X37.297 Y-25.169 Z-0.523 I-2.134 J1.303
G1 X37.163 Y-25.372 Z-0.527
G2 X37.065 Y-25.512 Z-0.529 I-2.09 J1.372
G1 X34.532 Y-28.849 Z-0.589
G2 X34.406 Y-29.002 Z-0.591 I-1.991 J1.511
G1 X34.027 Y-29.427 Z-0.599
G2 X33.994 Y-29.464 Z-0.6 I-1.866 J1.664
G1 X31.785 Y-31.843 Z-0.646
G2 X31.72 Y-31.911 Z-0.647 I-1.832 J1.701
X31.69 Y-31.941 Z-0.648 I-1.768 J1.768
G1 X31.105 Y-32.505 Z-0.659
G2 X31.023 Y-32.581 Z-0.661 I-1.737 J1.798
G1 X28.34 Y-34.949 Z-0.712
G2 X28.24 Y-35.032 Z-0.714 I-1.654 J1.874
G1 X27.937 Y-35.273 Z-0.719
G2 X27.846 Y-35.343 Z-0.721 I-1.555 J1.958
G1 X25.28 Y-37.195 Z-0.765
G2 X25.251 Y-37.216 Z-0.766 I-1.463 J2.027
G1 X24.458 Y-37.771 Z-0.78
G2 X24.284 Y-37.882 Z-0.783 I-1.434 J2.048
G1 X22.697 Y-38.808 Z-0.809
G2 X22.688 Y-38.813 I-1.26 J2.159
G1 X21.102 Y-39.729 Z-0.835
G2 X21.069 Y-39.747 I-1.25 J2.165
G1 X20.672 Y-39.968 Z-0.842
G2 X20.529 Y-40.042 Z-0.844 I-1.217 J2.184
G1 X19.919 Y-40.333 Z-0.853
G2 X19.874 Y-40.354 Z-0.854 I-1.074 J2.258
G1 X16.915 Y-41.689 Z-0.9
G2 X16.861 Y-41.713 Z-0.901 I-1.029 J2.279
G1 X16.542 Y-41.848 Z-0.906
G2 X16.41 Y-41.9 Z-0.908 I-0.975 J2.302
G1 X15.936 Y-42.069 Z-0.915
G2 X15.891 Y-42.085 Z-0.916 I-0.843 J2.354
G1 X12.719 Y-43.153 Z-0.963
G2 X12.665 Y-43.171 Z-0.964 I-0.798 J2.369
G1 X12.268 Y-43.294 Z-0.97
G2 X12.098 Y-43.341 Z-0.972 I-0.744 J2.387
G1 X10.655 Y-43.681 Z-0.993
G2 X10.635 Y-43.686 I-0.574 J2.433
G1 X8.113 Y-44.259 Z-1.03
G2 X7.966 Y-44.287 Z-1.032 I-0.554 J2.438
G1 X7.57 Y-44.353 Z-1.038
G2 X7.478 Y-44.366 Z-1.039 I-0.407 J2.467
G1 X4.305 Y-44.769 Z-1.084
G2 X4.273 Y-44.773 Z-1.085 I-0.315 J2.48
G1 X3.48 Y-44.863 Z-1.096
G2 X3.294 Y-44.878 Z-1.099 I-0.283 J2.484
G1 X2.501 Y-44.908 Z-1.11
G2 X2.466 Y-44.91 Z-1.111 I-0.097 J2.498
G1 X-0.706 Y-44.989 Z-1.155
G2 X-0.869 Y-44.987 Z-1.158 I-0.062 J2.499
G1 X-1.662 Y-44.955 Z-1.169
G2 X-1.746 Y-44.95 Z-1.17 I0.101 J2.498
G1 X-4.919 Y-44.715 Z-1.215
G2 X-5.012 Y-44.706 Z-1.217 I0.185 J2.493
G1 X-5.805 Y-44.617 Z-1.228
G2 X-5.957 Y-44.595 Z-1.23 I0.279 J2.484
G1 X-9.129 Y-44.041 Z-1.276
G2 X-9.169 Y-44.034 I0.43 J2.463
G1 X-9.962 Y-43.882 Z-1.288
G2 X-10.157 Y-43.836 Z-1.29 I0.47 J2.455
G1 X-11.743 Y-43.399 Z-1.314
G2 X-11.755 Y-43.395 I0.665 J2.41
G1 X-13.653 Y-42.861 Z-1.342
G2 X-13.685 Y-42.852 I0.677 J2.407
G1 X-14.166 Y-42.71 Z-1.349
G2 X-14.329 Y-42.655 Z-1.352 I0.709 J2.397
G1 X-15.122 Y-42.36 Z-1.364
G2 X-15.164 Y-42.344 I0.872 J2.343
G1 X-18.091 Y-41.195 Z-1.409
G2 X-18.155 Y-41.169 Z-1.41 I0.913 J2.327
G1 X-18.4 Y-41.065 Z-1.414
G2 X-18.529 Y-41.006 Z-1.416 I0.978 J2.301
G1 X-19.322 Y-40.615 Z-1.428
G2 X-19.356 Y-40.598 Z-1.429 I1.106 J2.242
G1 X-21.735 Y-39.378 Z-1.467
G2 X-21.79 Y-39.349 I1.141 J2.225
G1 X-22.583 Y-38.917 Z-1.48
G2 X-22.741 Y-38.824 Z-1.483 I1.195 J2.196
G1 X-25.913 Y-36.782 Z-1.536
G2 X-26.058 Y-36.682 Z-1.539 I1.353 J2.102
G1 X-26.851 Y-36.088 Z-1.553
G2 X-26.912 Y-36.041 Z-1.554 I1.498 J2.002
G1 X-29.291 Y-34.144 Z-1.597
G2 X-29.355 Y-34.091 Z-1.598 I1.559 J1.955
G1 X-29.894 Y-33.631 Z-1.608
G2 X-30.017 Y-33.519 Z-1.61 I1.622 J1.902
G1 X-32.65 Y-30.953 Z-1.662
G2 X-32.74 Y-30.86 Z-1.664 I1.745 J1.79
G1 X-33.301 Y-30.253 Z-1.676
G2 X-33.38 Y-30.163 Z-1.678 I1.836 J1.697
G1 X-35.377 Y-27.784 Z-1.722
G2 X-35.436 Y-27.711 Z-1.723 I1.915 J1.607
G1 X-36.053 Y-26.918 Z-1.737
G2 X-36.143 Y-26.794 Z-1.739 I1.974 J1.534
G1 X-37.769 Y-24.414 Z-1.78
G2 X-37.785 Y-24.39 Z-1.781 I2.064 J1.41
G1 X-38.314 Y-23.597 Z-1.794
G2 X-38.391 Y-23.475 Z-1.796 I2.08 J1.387
G1 X-38.613 Y-23.096 Z-1.802
G2 X-38.651 Y-23.028 Z-1.803 I2.157 J1.264
G1 X-40.237 Y-20.12 Z-1.85
G2 X-40.28 Y-20.038 Z-1.852 I2.195 J1.197
G1 X-40.618 Y-19.36 Z-1.862
G2 X-40.682 Y-19.219 Z-1.864 I2.237 J1.115
G1 X-42.026 Y-16.046 Z-1.913
G2 X-42.063 Y-15.956 Z-1.915 I2.302 J0.975
G1 X-42.363 Y-15.162 Z-1.927
G2 X-42.412 Y-15.018 Z-1.929 I2.338 J0.884
G1 X-43.396 Y-11.845 Z-1.976
G2 X-43.418 Y-11.77 Z-1.977 I2.388 J0.74
G1 X-43.637 Y-10.976 Z-1.989
G2 X-43.676 Y-10.814 Z-1.991 I2.41 J0.664
G1 X-44.164 Y-8.435 Z-2.025
G2 X-44.168 Y-8.414 Z-2.026 I2.449 J0.502
G1 X-44.461 Y-6.921 Z-2.047
G2 X-44.489 Y-6.743 Z-2.05 I2.453 J0.481
G1 X-44.597 Y-5.855 Z-2.062
G2 X-44.604 Y-5.798 Z-2.063 I2.482 J0.303
G1 X-44.916 Y-2.625 Z-2.108
G2 X-44.926 Y-2.477 Z-2.11 I2.488 J0.245
G1 X-44.957 Y-1.684 Z-2.122
G2 X-44.959 Y-1.586 Z-2.123 I2.498 J0.097
G1 Y1.586 Z-2.168
G2 X-44.957 Y1.684 Z-2.169 I2.5
G1 X-44.926 Y2.477 Z-2.181
G2 X-44.916 Y2.625 Z-2.183 I2.498 J-0.097
G1 X-44.604 Y5.798 Z-2.228
G2 X-44.597 Y5.855 Z-2.229 I2.488 J-0.245
G1 X-44.489 Y6.743 Z-2.241
G2 X-44.461 Y6.921 Z-2.244 I2.482 J-0.303
G1 X-44.168 Y8.414 Z-2.265
G2 X-44.164 Y8.435 Z-2.266 I2.453 J-0.481
G1 X-43.676 Y10.814 Z-2.3
G2 X-43.637 Y10.976 Z-2.302 I2.449 J-0.502
G1 X-43.418 Y11.77 Z-2.314
G2 X-43.396 Y11.845 Z-2.315 I2.41 J-0.664
G1 X-42.412 Y15.018 Z-2.362
G2 X-42.363 Y15.162 Z-2.364 I2.388 J-0.74
G1 X-42.063 Y15.956 Z-2.376
G2 X-42.026 Y16.046 Z-2.378 I2.338 J-0.884
G1 X-40.682 Y19.219 Z-2.426
G2 X-40.612 Y19.372 Z-2.429 I2.302 J-0.975
G1 X-40.211 Y20.165 Z-2.441
G2 X-40.174 Y20.234 Z-2.442 I2.231 J-1.127
G1 X-38.651 Y23.028 Z-2.488
G2 X-38.613 Y23.096 Z-2.489 I2.195 J-1.197
G1 X-38.391 Y23.475 Z-2.495
G2 X-38.307 Y23.608 Z-2.497 I2.157 J-1.264
G1 X-37.237 Y25.194 Z-2.524
G2 X-37.228 Y25.208 I2.073 J-1.398
G1 X-36.14 Y26.798 Z-2.552
G2 X-36.05 Y26.921 Z-2.554 I2.063 J-1.411
G1 X-35.436 Y27.711 Z-2.568
G2 X-35.377 Y27.784 Z-2.569 I1.974 J-1.535
G1 X-33.38 Y30.163 Z-2.613
G2 X-33.301 Y30.253 Z-2.615 I1.915 J-1.607
G1 X-32.74 Y30.86 Z-2.627
G2 X-32.65 Y30.953 Z-2.628 I1.836 J-1.697
G1 X-30.017 Y33.519 Z-2.681
G2 X-29.894 Y33.631 Z-2.683 I1.745 J-1.79
G1 X-29.355 Y34.091 Z-2.693
G2 X-29.291 Y34.144 Z-2.694 I1.622 J-1.902
G1 X-26.883 Y36.064 Z-2.738
G2 X-26.821 Y36.112 Z-2.739 I1.559 J-1.955
G1 X-26.056 Y36.683 Z-2.752
G2 X-25.913 Y36.782 Z-2.755 I1.496 J-2.003
G1 X-22.741 Y38.824 Z-2.808
G2 X-22.583 Y38.917 Z-2.811 I1.353 J-2.102
G1 X-21.79 Y39.349 Z-2.824
G2 X-21.735 Y39.378 I1.195 J-2.196
G1 X-19.356 Y40.598 Z-2.862
G2 X-19.322 Y40.615 Z-2.863 I1.141 J-2.225
G1 X-18.529 Y41.006 Z-2.875
G2 X-18.4 Y41.065 Z-2.877 I1.106 J-2.242
G1 X-18.155 Y41.169 Z-2.881
G2 X-18.091 Y41.195 Z-2.882 I0.978 J-2.301
G1 X-15.164 Y42.344 Z-2.927
G2 X-15.122 Y42.36 I0.913 J-2.327
G1 X-14.329 Y42.655 Z-2.939
G2 X-14.144 Y42.716 Z-2.942 I0.872 J-2.343
G1 X-12.558 Y43.169 Z-2.965
G2 X-12.548 Y43.172 I0.687 J-2.404
G1 X-10.834 Y43.655 Z-2.991
G2 X-10.804 Y43.663 I0.677 J-2.407
G1 X-10.139 Y43.841 Z-3.001
G2 X-9.962 Y43.882 Z-3.003 I0.648 J-2.415
G1 X-9.169 Y44.034 Z-3.015
G2 X-9.129 Y44.041 I0.47 J-2.455
G1 X-5.957 Y44.595 Z-3.061
G2 X-5.805 Y44.617 Z-3.063 I0.43 J-2.463
G1 X-5.012 Y44.706 Z-3.074
G2 X-4.919 Y44.715 Z-3.076 I0.279 J-2.484
G1 X-1.746 Y44.95 Z-3.121
G2 X-1.662 Y44.955 Z-3.122 I0.185 J-2.493
G1 X-0.869 Y44.987 Z-3.133
G2 X-0.706 Y44.989 Z-3.135 I0.101 J-2.498
G1 X2.466 Y44.91 Z-3.18
G2 X2.501 Y44.908 Z-3.181 I-0.062 J-2.499
G1 X3.294 Y44.878 Z-3.192
G2 X3.494 Y44.862 Z-3.195 I-0.097 J-2.498
G1 X5.08 Y44.672 Z-3.218
G2 X5.1 Y44.67 I-0.297 J-2.482
G1 X7.479 Y44.366 Z-3.252
G2 X7.57 Y44.353 Z-3.253 I-0.316 J-2.48
G1 X7.966 Y44.287 Z-3.259
G2 X8.116 Y44.258 Z-3.261 I-0.407 J-2.467
G1 X11.684 Y43.443 Z-3.313
G2 X11.728 Y43.433 I-0.557 J-2.437
G1 X12.125 Y43.334 Z-3.319
G2 X12.268 Y43.294 Z-3.321 I-0.6 J-2.427
G1 X12.665 Y43.171 Z-3.327
G2 X12.72 Y43.153 Z-3.328 I-0.744 J-2.387
G1 X16.047 Y42.03 Z-3.378
G2 X16.1 Y42.012 I-0.799 J-2.369
G1 X16.419 Y41.897 Z-3.383
G2 X16.542 Y41.848 Z-3.385 I-0.851 J-2.351
G1 X16.861 Y41.713 Z-3.39
G2 X16.917 Y41.689 Z-3.391 I-0.975 J-2.302
G1 X20.089 Y40.253 Z-3.44
G2 X20.142 Y40.229 Z-3.441 I-1.031 J-2.278
G1 X20.539 Y40.038 Z-3.447
G2 X20.694 Y39.956 Z-3.45 I-1.083 J-2.253
G1 X21.884 Y39.277 Z-3.469
G2 X21.895 Y39.271 I-1.239 J-2.171
G1 X23.481 Y38.355 Z-3.495
G2 X23.504 Y38.342 Z-3.496 I-1.25 J-2.165
G1 X24.34 Y37.847 Z-3.509
G2 X24.516 Y37.732 Z-3.512 I-1.273 J-2.152
G1 X26.059 Y36.635 Z-3.539
G2 X26.075 Y36.623 I-1.449 J-2.037
G1 X27.847 Y35.341 Z-3.57
G2 X27.937 Y35.273 Z-3.572 I-1.465 J-2.026
G1 X28.24 Y35.032 Z-3.577
G2 X28.34 Y34.949 Z-3.579 I-1.555 J-1.958
G1 X31.023 Y32.581 Z-3.63
G2 X31.105 Y32.505 Z-3.631 I-1.654 J-1.874
G1 X31.69 Y31.941 Z-3.643
G2 X31.785 Y31.843 Z-3.645 I-1.737 J-1.798
G1 X33.994 Y29.464 Z-3.691
G2 X34.027 Y29.427 Z-3.692 I-1.832 J-1.701
G1 X34.406 Y29.002 Z-3.7
G2 X34.532 Y28.849 Z-3.702 I-1.866 J-1.664
G1 X37.065 Y25.512 Z-3.762
G2 X37.163 Y25.372 Z-3.764 I-1.991 J-1.511
G1 X37.297 Y25.169 Z-3.768
G2 X37.341 Y25.1 Z-3.769 I-2.09 J-1.372
G1 X39.433 Y21.674 Z-3.826
G2 X39.549 Y21.462 Z-3.829 I-2.134 J-1.303
G1 X40.58 Y19.335 Z-3.862
X40.583 Y19.329
X41.347 Y17.742 Z-3.887
G2 X41.377 Y17.677 Z-3.888 I-2.252 J-1.085
G1 X41.466 Y17.479 Z-3.891
G2 X41.533 Y17.312 Z-3.894 I-2.283 J-1.019
G1 X42.972 Y13.346 Z-3.954
G2 X43.044 Y13.111 Z-3.957 I-2.35 J-0.853
G1 X43.791 Y10.183 Z-4
X44.006 Y9.343 F1000
G2 X44.02 Y9.286 I-2.422 J-0.618
G1 X44.111 Y8.889
G2 X44.146 Y8.702 I-2.436 J-0.56
G1 X44.744 Y4.735
G2 X44.756 Y4.644 I-2.472 J-0.373
G1 X44.779 Y4.446
G2 X44.792 Y4.288 I-2.484 J-0.281
G1 X44.997 Y0.123
G2 Y-0.123 I-2.497 J-0.123
G1 X44.792 Y-4.288
G2 X44.771 Y-4.507 I-2.497 J0.123
G1 X44.689 Y-5.102
G2 X44.684 Y-5.132 I-2.476 J0.342
G1 X44.146 Y-8.702
G2 X44.111 Y-8.889 I-2.472 J0.373
G1 X44.02 Y-9.286
G2 X44.006 Y-9.343 I-2.436 J0.56
G1 X43.044 Y-13.111
G2 X42.972 Y-13.346 I-2.422 J0.618
G1 X41.533 Y-17.312
G2 X41.445 Y-17.524 I-2.35 J0.853
G1 X41.147 Y-18.156
G2 X41.138 Y-18.177 I-2.262 J1.064
G1 X39.819 Y-20.915
G2 X39.807 Y-20.939 I-2.252 J1.085
G1 X39.54 Y-21.479
G2 X39.433 Y-21.674 I-2.241 J1.108
G1 X37.341 Y-25.1
G2 X37.297 Y-25.169 I-2.134 J1.303
G1 X37.163 Y-25.372
G2 X37.065 Y-25.512 I-2.09 J1.372
G1 X34.532 Y-28.849
G2 X34.406 Y-29.002 I-1.991 J1.511
G1 X34.027 Y-29.427
G2 X33.994 Y-29.464 I-1.866 J1.664
G1 X31.785 Y-31.843
G2 X31.69 Y-31.941 I-1.832 J1.701
G1 X31.105 Y-32.505
G2 X31.023 Y-32.581 I-1.737 J1.798
G1 X28.34 Y-34.949
G2 X28.24 Y-35.032 I-1.654 J1.874
G1 X27.937 Y-35.273
G2 X27.846 Y-35.343 I-1.555 J1.958
G1 X25.28 Y-37.195
G2 X25.251 Y-37.216 I-1.463 J2.027
G1 X24.458 Y-37.771
G2 X24.284 Y-37.882 I-1.434 J2.048
G1 X22.697 Y-38.808
G2 X22.688 Y-38.813 I-1.26 J2.159
G1 X21.102 Y-39.729
G2 X21.069 Y-39.747 I-1.25 J2.165
G1 X20.672 Y-39.968
G2 X20.529 Y-40.042 I-1.217 J2.184
G1 X19.919 Y-40.333
G2 X19.874 Y-40.354 I-1.074 J2.258
G1 X16.915 Y-41.689
G2 X16.861 Y-41.713 I-1.029 J2.279
G1 X16.542 Y-41.848
G2 X16.41 Y-41.9 I-0.975 J2.302
G1 X15.936 Y-42.069
G2 X15.891 Y-42.085 I-0.843 J2.354
G1 X12.719 Y-43.153
G2 X12.665 Y-43.171 I-0.798 J2.369
G1 X12.268 Y-43.294
G2 X12.098 Y-43.341 I-0.744 J2.387
G1 X10.655 Y-43.681
G2 X10.635 Y-43.686 I-0.574 J2.433
G1 X8.113 Y-44.259
G2 X7.966 Y-44.287 I-0.554 J2.438
G1 X7.57 Y-44.353
G2 X7.478 Y-44.366 I-0.407 J2.467
G1 X4.305 Y-44.769
G2 X4.273 Y-44.773 I-0.315 J2.48
G1 X3.48 Y-44.863
G2 X3.294 Y-44.878 I-0.283 J2.484
G1 X2.501 Y-44.908
G2 X2.466 Y-44.91 I-0.097 J2.498
G1 X-0.706 Y-44.989
G2 X-0.869 Y-44.987 I-0.062 J2.499
G1 X-1.662 Y-44.955
G2 X-1.746 Y-44.95 I0.101 J2.498
G1 X-4.919 Y-44.715
G2 X-5.012 Y-44.706 I0.185 J2.493
G1 X-5.805 Y-44.617
G2 X-5.957 Y-44.595 I0.279 J2.484
G1 X-9.129 Y-44.041
G2 X-9.169 Y-44.034 I0.43 J2.463
G1 X-9.962 Y-43.882
G2 X-10.157 Y-43.836 I0.47 J2.455
G1 X-11.743 Y-43.399
G2 X-11.755 Y-43.395 I0.665 J2.41
G1 X-13.653 Y-42.861
G2 X-13.685 Y-42.852 I0.677 J2.407
G1 X-14.166 Y-42.71
G2 X-14.329 Y-42.655 I0.709 J2.397
G1 X-15.122 Y-42.36
G2 X-15.164 Y-42.344 I0.872 J2.343
G1 X-18.091 Y-41.195
G2 X-18.155 Y-41.169 I0.913 J2.327
G1 X-18.4 Y-41.065
G2 X-18.529 Y-41.006 I0.978 J2.301
G1 X-19.322 Y-40.615
G2 X-19.356 Y-40.598 I1.106 J2.242
G1 X-21.735 Y-39.378
G2 X-21.79 Y-39.349 I1.141 J2.225
G1 X-22.583 Y-38.917
G2 X-22.741 Y-38.824 I1.195 J2.196
G1 X-25.913 Y-36.782
G2 X-26.058 Y-36.682 I1.353 J2.102
G1 X-26.851 Y-36.088
G2 X-26.912 Y-36.041 I1.498 J2.002
G1 X-29.291 Y-34.144
G2 X-29.355 Y-34.091 I1.559 J1.955
G1 X-29.894 Y-33.631
G2 X-30.017 Y-33.519 I1.622 J1.902
G1 X-32.65 Y-30.953
G2 X-32.74 Y-30.86 I1.745 J1.79
G1 X-33.301 Y-30.253
G2 X-33.38 Y-30.163 I1.836 J1.697
G1 X-35.377 Y-27.784
G2 X-35.436 Y-27.711 I1.915 J1.607
G1 X-36.053 Y-26.918
G2 X-36.143 Y-26.794 I1.974 J1.534
G1 X-37.769 Y-24.414
G2 X-37.785 Y-24.39 I2.064 J1.41
G1 X-38.314 Y-23.597
G2 X-38.391 Y-23.475 I2.08 J1.387
G1 X-38.613 Y-23.096
G2 X-38.651 Y-23.028 I2.157 J1.264
G1 X-40.237 Y-20.12
G2 X-40.28 Y-20.038 I2.195 J1.197
G1 X-40.618 Y-19.36
G2 X-40.682 Y-19.219 I2.237 J1.115
G1 X-42.026 Y-16.046
G2 X-42.063 Y-15.956 I2.302 J0.975
G1 X-42.363 Y-15.162
G2 X-42.412 Y-15.018 I2.338 J0.884
G1 X-43.396 Y-11.845
G2 X-43.418 Y-11.77 I2.388 J0.74
G1 X-43.637 Y-10.976
G2 X-43.676 Y-10.814 I2.41 J0.664
G1 X-44.164 Y-8.435
G2 X-44.168 Y-8.414 I2.449 J0.502
G1 X-44.461 Y-6.921
G2 X-44.489 Y-6.743 I2.453 J0.481
G1 X-44.597 Y-5.855
G2 X-44.604 Y-5.798 I2.482 J0.303
G1 X-44.916 Y-2.625
G2 X-44.926 Y-2.477 I2.488 J0.245
G1 X-44.957 Y-1.684
G2 X-44.959 Y-1.586 I2.498 J0.097
G1 Y1.586
G2 X-44.957 Y1.684 I2.5
G1 X-44.926 Y2.477
G2 X-44.916 Y2.625 I2.498 J-0.097
G1 X-44.604 Y5.798
G2 X-44.597 Y5.855 I2.488 J-0.245
G1 X-44.489 Y6.743
G2 X-44.461 Y6.921 I2.482 J-0.303
G1 X-44.168 Y8.414
G2 X-44.164 Y8.435 I2.453 J-0.481
G1 X-43.676 Y10.814
G2 X-43.637 Y10.976 I2.449 J-0.502
G1 X-43.418 Y11.77
G2 X-43.396 Y11.845 I2.41 J-0.664
G1 X-42.412 Y15.018
G2 X-42.363 Y15.162 I2.388 J-0.74
G1 X-42.063 Y15.956
G2 X-42.026 Y16.046 I2.338 J-0.884
G1 X-40.682 Y19.219
G2 X-40.612 Y19.372 I2.302 J-0.975
G1 X-40.211 Y20.165
G2 X-40.174 Y20.234 I2.231 J-1.127
G1 X-38.651 Y23.028
G2 X-38.613 Y23.096 I2.195 J-1.197
G1 X-38.391 Y23.475
G2 X-38.307 Y23.608 I2.157 J-1.264
G1 X-37.237 Y25.194
G2 X-37.228 Y25.208 I2.073 J-1.398
G1 X-36.14 Y26.798
G2 X-36.05 Y26.921 I2.063 J-1.411
G1 X-35.436 Y27.711
G2 X-35.377 Y27.784 I1.974 J-1.535
G1 X-33.38 Y30.163
G2 X-33.301 Y30.253 I1.915 J-1.607
G1 X-32.74 Y30.86
G2 X-32.65 Y30.953 I1.836 J-1.697
G1 X-30.017 Y33.519
G2 X-29.894 Y33.631 I1.745 J-1.79
G1 X-29.355 Y34.091
G2 X-29.291 Y34.144 I1.622 J-1.902
G1 X-26.883 Y36.064
G2 X-26.821 Y36.112 I1.559 J-1.955
G1 X-26.056 Y36.683
G2 X-25.913 Y36.782 I1.496 J-2.003
G1 X-22.741 Y38.824
G2 X-22.583 Y38.917 I1.353 J-2.102
G1 X-21.79 Y39.349
G2 X-21.735 Y39.378 I1.195 J-2.196
G1 X-19.356 Y40.598
G2 X-19.322 Y40.615 I1.141 J-2.225
G1 X-18.529 Y41.006
G2 X-18.4 Y41.065 I1.106 J-2.242
G1 X-18.155 Y41.169
G2 X-18.091 Y41.195 I0.978 J-2.301
G1 X-15.164 Y42.344
G2 X-15.122 Y42.36 I0.913 J-2.327
G1 X-14.329 Y42.655
G2 X-14.144 Y42.716 I0.872 J-2.343
G1 X-12.558 Y43.169
G2 X-12.548 Y43.172 I0.687 J-2.404
G1 X-10.834 Y43.655
G2 X-10.804 Y43.663 I0.677 J-2.407
G1 X-10.139 Y43.841
G2 X-9.962 Y43.882 I0.648 J-2.415
G1 X-9.169 Y44.034
G2 X-9.129 Y44.041 I0.47 J-2.455
G1 X-5.957 Y44.595
G2 X-5.805 Y44.617 I0.43 J-2.463
G1 X-5.012 Y44.706
G2 X-4.919 Y44.715 I0.279 J-2.484
G1 X-1.746 Y44.95
G2 X-1.662 Y44.955 I0.185 J-2.493
G1 X-0.869 Y44.987
G2 X-0.706 Y44.989 I0.101 J-2.498
G1 X2.466 Y44.91
G2 X2.501 Y44.908 I-0.062 J-2.499
G1 X3.294 Y44.878
G2 X3.494 Y44.862 I-0.097 J-2.498
G1 X5.08 Y44.672
G2 X5.1 Y44.67 I-0.297 J-2.482
G1 X7.479 Y44.366
G2 X7.57 Y44.353 I-0.316 J-2.48
G1 X7.966 Y44.287
G2 X8.116 Y44.258 I-0.407 J-2.467
G1 X11.684 Y43.443
G2 X11.728 Y43.433 I-0.557 J-2.437
G1 X12.125 Y43.334
G2 X12.268 Y43.294 I-0.6 J-2.427
G1 X12.665 Y43.171
G2 X12.72 Y43.153 I-0.744 J-2.387
G1 X16.047 Y42.03
G2 X16.1 Y42.012 I-0.799 J-2.369
G1 X16.419 Y41.897
G2 X16.542 Y41.848 I-0.851 J-2.351
G1 X16.861 Y41.713
G2 X16.917 Y41.689 I-0.975 J-2.302
G1 X20.089 Y40.253
G2 X20.142 Y40.229 I-1.031 J-2.278
G1 X20.539 Y40.038
G2 X20.694 Y39.956 I-1.083 J-2.253
G1 X21.884 Y39.277
G2 X21.895 Y39.271 I-1.239 J-2.171
G1 X23.481 Y38.355
G2 X23.504 Y38.342 I-1.25 J-2.165
G1 X24.34 Y37.847
G2 X24.516 Y37.732 I-1.273 J-2.152
G1 X26.059 Y36.635
G2 X26.075 Y36.623 I-1.449 J-2.037
G1 X27.847 Y35.341
G2 X27.937 Y35.273 I-1.465 J-2.026
G1 X28.24 Y35.032
G2 X28.34 Y34.949 I-1.555 J-1.958
G1 X31.023 Y32.581
G2 X31.105 Y32.505 I-1.654 J-1.874
G1 X31.69 Y31.941
G2 X31.785 Y31.843 I-1.737 J-1.798
G1 X33.994 Y29.464
G2 X34.027 Y29.427 I-1.832 J-1.701
G1 X34.406 Y29.002
G2 X34.532 Y28.849 I-1.866 J-1.664
G1 X37.065 Y25.512
G2 X37.163 Y25.372 I-1.991 J-1.511
G1 X37.297 Y25.169
G2 X37.341 Y25.1 I-2.09 J-1.372
G1 X39.433 Y21.674
G2 X39.549 Y21.462 I-2.134 J-1.303
G1 X40.58 Y19.335
X40.583 Y19.329
X41.347 Y17.742
G2 X41.377 Y17.677 I-2.252 J-1.085
G1 X41.466 Y17.479
G2 X41.533 Y17.312 I-2.283 J-1.019
G1 X42.972 Y13.346
G2 X43.044 Y13.111 I-2.35 J-0.853
G1 X43.791 Y10.183
G3 X43.925 Y10.114 I0.097 J0.025
G1 X50.345 Y12.61
G3 X50.406 Y12.725 I-0.036 J0.093
G1 X50.378 Y12.854
X50.376 Y12.861
X49.207 Y16.788
X49.204 Y16.795
X48.69 Y18.135
X47.683 Y20.715
X47.681 Y20.72
X47.489 Y21.147
X45.969 Y24.255
X45.605 Y24.956
X45.602 Y24.961
X43.773 Y28.03
X43.317 Y28.736
X41.119 Y31.814
X40.914 Y32.075
X38.581 Y34.83
X37.877 Y35.594
X35.57 Y37.901
X34.833 Y38.579
X32.093 Y40.9
X31.832 Y41.106
X31.828 Y41.109
X28.756 Y43.303
X28.049 Y43.761
X24.978 Y45.591
X24.973 Y45.594
X24.275 Y45.96
X21.164 Y47.481
X20.753 Y47.668
X20.747 Y47.67
X16.838 Y49.192
X16.83 Y49.194
X12.88 Y50.37
X12.873 Y50.372
X12.185 Y50.526
X9.058 Y51.182
X8.368 Y51.31
X8.362 Y51.311
X4.543 Y51.787
X4.537 Y51.788
X3.851 Y51.836
X0.028 Y51.995
X0.02
X-3.806 Y51.838
X-4.494 Y51.793
X-4.499
X-8.319 Y51.316
X-8.324
X-9.012 Y51.191
X-12.14 Y50.535
X-12.829 Y50.385
X-12.836 Y50.383
X-16.83 Y49.194
X-16.838 Y49.192
X-20.751 Y47.669
X-20.756 Y47.667
X-21.115 Y47.505
X-24.229 Y45.982
X-24.929 Y45.621
X-24.934 Y45.618
X-28.002 Y43.789
X-28.708 Y43.337
X-31.784 Y41.14
X-32.096 Y40.897
X-34.832 Y38.579
X-35.519 Y37.951
X-37.917 Y35.553
X-38.576 Y34.836
X-40.867 Y32.132
X-41.12 Y31.813
X-41.123 Y31.809
X-43.311 Y28.745
X-43.314 Y28.74
X-43.844 Y27.91
X-45.602 Y24.961
X-45.605 Y24.956
X-45.968 Y24.258
X-47.497 Y21.131
X-47.638 Y20.83
X-47.641 Y20.824
X-49.157 Y16.939
X-49.159 Y16.931
X-50.374 Y12.866
X-50.376 Y12.859
X-50.695 Y11.379
X-51.186 Y9.038
X-51.313 Y8.348
Y8.342
X-51.79 Y4.522
Y4.516
X-51.837 Y3.83
X-51.996 Y0.004
Y-0.004
X-51.837 Y-3.828
X-51.79 Y-4.516
Y-4.522
X-51.423 Y-7.466
X-51.313 Y-8.342
Y-8.348
X-51.186 Y-9.035
X-50.53 Y-12.164
X-50.378 Y-12.852
X-50.376 Y-12.859
X-49.159 Y-16.931
X-49.157 Y-16.939
X-47.646 Y-20.811
X-47.643 Y-20.818
X-47.115 Y-21.911
X-46.877 Y-22.398
X-45.969 Y-24.255
X-45.605 Y-24.956
X-45.602 Y-24.961
X-43.773 Y-28.03
X-43.317 Y-28.736
X-41.123 Y-31.809
X-41.12 Y-31.813
X-40.869 Y-32.129
X-38.553 Y-34.863
X-37.83 Y-35.64
X-35.523 Y-37.947
X-34.806 Y-38.601
X-32.099 Y-40.894
X-31.788 Y-41.138
X-28.717 Y-43.33
X-28.713 Y-43.334
X-27.856 Y-43.877
X-24.934 Y-45.618
X-24.929 Y-45.621
X-24.231 Y-45.981
X-21.118 Y-47.503
X-20.756 Y-47.667
X-20.751 Y-47.669
X-16.838 Y-49.192
X-16.83 Y-49.194
X-12.843 Y-50.381
X-12.836 Y-50.383
X-10.562 Y-50.867
X-9.014 Y-51.191
X-8.324 Y-51.316
X-8.319
X-4.499 Y-51.793
X-4.494
X-3.808 Y-51.838
X0.02 Y-51.995
X0.028
X3.849 Y-51.837
X4.537 Y-51.788
X4.543 Y-51.787
X8.362 Y-51.311
X8.368 Y-51.31
X9.056 Y-51.182
X12.184 Y-50.526
X12.873 Y-50.372
X12.88 Y-50.37
X16.83 Y-49.194
X16.838 Y-49.192
X20.747 Y-47.67
X20.753 Y-47.668
X21.162 Y-47.482
X24.273 Y-45.961
X24.973 Y-45.594
X24.978 Y-45.591
X28.046 Y-43.763
X28.752 Y-43.305
X31.828 Y-41.109
X31.832 Y-41.106
X32.09 Y-40.902
X34.846 Y-38.567
X35.609 Y-37.861
X37.916 Y-35.554
X38.594 Y-34.815
X40.912 Y-32.078
X41.116 Y-31.818
X43.315 Y-28.739
X43.771 Y-28.033
X45.602 Y-24.961
X45.605 Y-24.956
X45.968 Y-24.258
X47.488 Y-21.15
X47.681 Y-20.72
X47.683 Y-20.715
X48.996 Y-17.35
X49.202 Y-16.803
X49.204 Y-16.796
X50.374 Y-12.868
X50.376 Y-12.86
X50.715 Y-11.285
X51.186 Y-9.038
X51.313 Y-8.348
Y-8.342
X51.79 Y-4.522
Y-4.516
X51.837 Y-3.83
X51.996 Y-0.004
Y0.004
X51.837 Y3.828
X51.79 Y4.516
Y4.522
X51.313 Y8.342
Y8.348
X51.186 Y9.035
X50.53 Y12.164
X50.406 Y12.725
G3 X50.333 Y12.723 I-0.036 J-0.008
G1 X50.314 Y12.591
X51.752 Y2.925
X51.809 Y2.802
G3 X51.879 Y2.82 I0.033 J0.016
G1 X51.837 Y3.828 Z-4.367 F333.3
X51.79 Y4.516 Z-4.618
Y4.522 Z-4.62
X51.313 Y8.342 Z-6.022
Y8.348 Z-6.024
X51.186 Y9.035 Z-6.278
X50.53 Y12.164 Z-7.442
X50.378 Y12.854 Z-7.699
X50.376 Y12.861 Z-7.701
X50.142 Y13.647 Z-8
X49.207 Y16.788 F1000
X49.204 Y16.795
X48.69 Y18.135
X47.683 Y20.715
X47.681 Y20.72
X47.489 Y21.147
X45.969 Y24.255
X45.605 Y24.956
X45.602 Y24.961
X43.773 Y28.03
X43.317 Y28.736
X41.119 Y31.814
X40.914 Y32.075
X38.581 Y34.83
X37.877 Y35.594
X35.57 Y37.901
X34.833 Y38.579
X32.093 Y40.9
X31.832 Y41.106
X31.828 Y41.109
X28.756 Y43.303
X28.049 Y43.761
X24.978 Y45.591
X24.973 Y45.594
X24.275 Y45.96
X21.164 Y47.481
X20.753 Y47.668
X20.747 Y47.67
X16.838 Y49.192
X16.83 Y49.194
X12.88 Y50.37
X12.873 Y50.372
X12.185 Y50.526
X9.058 Y51.182
X8.368 Y51.31
X8.362 Y51.311
X4.543 Y51.787
X4.537 Y51.788
X3.851 Y51.836
X0.028 Y51.995
X0.02
X-3.806 Y51.838
X-4.494 Y51.793
X-4.499
X-8.319 Y51.316
X-8.324
X-9.012 Y51.191
X-12.14 Y50.535
X-12.829 Y50.385
X-12.836 Y50.383
X-16.83 Y49.194
X-16.838 Y49.192
X-20.751 Y47.669
X-20.756 Y47.667
X-21.115 Y47.505
X-24.229 Y45.982
X-24.929 Y45.621
X-24.934 Y45.618
X-28.002 Y43.789
X-28.708 Y43.337
X-31.784 Y41.14
X-32.096 Y40.897
X-34.832 Y38.579
X-35.519 Y37.951
X-37.917 Y35.553
X-38.576 Y34.836
X-40.867 Y32.132
X-41.12 Y31.813
X-41.123 Y31.809
X-43.311 Y28.745
X-43.314 Y28.74
X-43.844 Y27.91
X-45.602 Y24.961
X-45.605 Y24.956
X-45.968 Y24.258
X-47.497 Y21.131
X-47.638 Y20.83
X-47.641 Y20.824
X-49.157 Y16.939
X-49.159 Y16.931
X-50.374 Y12.866
X-50.376 Y12.859
X-50.695 Y11.379
X-51.186 Y9.038
X-51.313 Y8.348
Y8.342
X-51.79 Y4.522
Y4.516
X-51.837 Y3.83
X-51.996 Y0.004
Y-0.004
X-51.837 Y-3.828
X-51.79 Y-4.516
Y-4.522
X-51.423 Y-7.466
X-51.313 Y-8.342
Y-8.348
X-51.186 Y-9.035
X-50.53 Y-12.164
X-50.378 Y-12.852
X-50.376 Y-12.859
X-49.159 Y-16.931
X-49.157 Y-16.939
X-47.646 Y-20.811
X-47.643 Y-20.818
X-47.115 Y-21.911
X-45.969 Y-24.255
X-45.605 Y-24.956
X-45.602 Y-24.961
X-43.773 Y-28.03
X-43.317 Y-28.736
X-41.123 Y-31.809
X-41.12 Y-31.813
X-40.869 Y-32.129
X-38.553 Y-34.863
X-37.83 Y-35.64
X-35.523 Y-37.947
X-34.806 Y-38.601
X-32.099 Y-40.894
X-31.788 Y-41.138
X-28.717 Y-43.33
X-28.713 Y-43.334
X-27.856 Y-43.877
X-24.934 Y-45.618
X-24.929 Y-45.621
X-24.231 Y-45.981
X-21.118 Y-47.503
X-20.756 Y-47.667
X-20.751 Y-47.669
X-16.838 Y-49.192
X-16.83 Y-49.194
X-12.843 Y-50.381
X-12.836 Y-50.383
X-10.562 Y-50.867
X-9.014 Y-51.191
X-8.324 Y-51.316
X-8.319
X-4.499 Y-51.793
X-4.494
X-3.808 Y-51.838
X0.02 Y-51.995
X0.028
X3.849 Y-51.837
X4.537 Y-51.788
X4.543 Y-51.787
X8.362 Y-51.311
X8.368 Y-51.31
X9.056 Y-51.182
X12.184 Y-50.526
X12.873 Y-50.372
X12.88 Y-50.37
X16.83 Y-49.194
X16.838 Y-49.192
X20.747 Y-47.67
X20.753 Y-47.668
X21.162 Y-47.482
X24.273 Y-45.961
X24.973 Y-45.594
X24.978 Y-45.591
X28.046 Y-43.763
X28.752 Y-43.305
X31.828 Y-41.109
X31.832 Y-41.106
X32.09 Y-40.902
X34.846 Y-38.567
X35.609 Y-37.861
X37.916 Y-35.554
X38.594 Y-34.815
X40.912 Y-32.078
X41.116 Y-31.818
X43.315 Y-28.739
X43.771 Y-28.033
X45.602 Y-24.961
X45.605 Y-24.956
X45.968 Y-24.258
X47.488 Y-21.15
X47.681 Y-20.72
X47.683 Y-20.715
X48.996 Y-17.35
X49.202 Y-16.803
X49.204 Y-16.796
X50.374 Y-12.868
X50.376 Y-12.86
X50.715 Y-11.285
X51.186 Y-9.038
X51.313 Y-8.348
Y-8.342
X51.79 Y-4.522
Y-4.516
X51.837 Y-3.83
X51.996 Y-0.004
Y0.004
X51.837 Y3.828
X51.79 Y4.516
Y4.522
X51.313 Y8.342
Y8.348
X51.186 Y9.035
X50.53 Y12.164
X50.378 Y12.854
X50.376 Y12.861
X50.142 Y13.647
G3 X50.01 Y13.712 I-0.096 J-0.029
G1 X43.615 Y11.231
G3 X43.554 Y11.113 I0.036 J-0.093
G1 X44.006 Y9.343
G2 X44.019 Y9.286 I-2.422 J-0.618
G1 X44.111 Y8.889
G2 X44.146 Y8.702 I-2.436 J-0.56
G1 X44.744 Y4.735
G2 X44.756 Y4.644 I-2.472 J-0.373
G1 X44.779 Y4.446
G2 X44.792 Y4.288 I-2.484 J-0.281
G1 X44.997 Y0.123
G2 Y-0.123 I-2.497 J-0.123
G1 X44.792 Y-4.288
G2 X44.771 Y-4.507 I-2.497 J0.123
G1 X44.689 Y-5.102
G2 X44.684 Y-5.132 I-2.476 J0.342
G1 X44.146 Y-8.702
G2 X44.111 Y-8.889 I-2.472 J0.373
G1 X44.019 Y-9.286
G2 X44.006 Y-9.343 I-2.436 J0.56
G1 X43.044 Y-13.111
G2 X42.972 Y-13.346 I-2.422 J0.618
G1 X41.533 Y-17.312
G2 X41.441 Y-17.531 I-2.35 J0.853
G1 X40.971 Y-18.523
G2 X40.965 Y-18.536 I-2.259 J1.072
G1 X39.819 Y-20.915
G2 X39.807 Y-20.939 I-2.252 J1.085
G1 X39.54 Y-21.48
G2 X39.433 Y-21.674 I-2.241 J1.109
G1 X37.341 Y-25.1
G2 X37.296 Y-25.17 I-2.134 J1.303
G1 X37.163 Y-25.373
G2 X37.065 Y-25.512 I-2.089 J1.373
G1 X34.532 Y-28.849
G2 X34.402 Y-29.006 I-1.991 J1.511
G1 X33.609 Y-29.891
G2 X33.58 Y-29.923 I-1.862 J1.669
G1 X31.993 Y-31.632
G2 X31.918 Y-31.709 I-1.832 J1.701
G1 X31.125 Y-32.492
G2 X31.025 Y-32.586 I-1.756 J1.779
G1 X28.645 Y-34.69
G2 X28.606 Y-34.724 I-1.656 J1.873
G1 X28.302 Y-34.982
G2 X28.24 Y-35.033 I-1.617 J1.907
G1 X27.936 Y-35.274
G2 X27.861 Y-35.331 I-1.554 J1.958
G1 X26.78 Y-36.124
G2 X26.761 Y-36.139 I-1.479 J2.016
G1 X25.276 Y-37.206
G2 X25.236 Y-37.234 I-1.459 J2.03
G1 X24.443 Y-37.781
G2 X24.291 Y-37.878 I-1.419 J2.058
G1 X22.705 Y-38.811
G2 X22.688 Y-38.821 I-1.267 J2.155
G1 X21.102 Y-39.737
G2 X21.036 Y-39.773 I-1.25 J2.165
G1 X20.639 Y-39.987
G2 X20.52 Y-40.047 I-1.184 J2.202
G1 X19.33 Y-40.607
G2 X19.292 Y-40.624 I-1.065 J2.262
G1 X16.913 Y-41.696
G2 X16.77 Y-41.755 I-1.027 J2.279
G1 X15.977 Y-42.054
G2 X15.902 Y-42.081 I-0.883 J2.339
G1 X14.316 Y-42.624
G2 X14.302 Y-42.628 I-0.809 J2.365
G1 X12.716 Y-43.161
G2 X12.576 Y-43.203 I-0.795 J2.37
G1 X11.783 Y-43.418
G2 X11.699 Y-43.44 I-0.655 J2.413
G1 X10.113 Y-43.812
G2 X10.098 Y-43.815 I-0.571 J2.434
G1 X8.512 Y-44.177
G2 X8.454 Y-44.19 I-0.556 J2.437
G1 X8.057 Y-44.271
G2 X7.966 Y-44.287 I-0.498 J2.45
G1 X7.57 Y-44.353
G2 X7.492 Y-44.364 I-0.407 J2.467
G1 X5.906 Y-44.575
G2 X5.887 Y-44.578 I-0.33 J2.478
G1 X4.301 Y-44.776
G2 X4.252 Y-44.782 I-0.311 J2.481
G1 X3.459 Y-44.866
G2 X3.288 Y-44.878 I-0.262 J2.486
G1 X1.702 Y-44.935
G2 X1.668 Y-44.936 I-0.09 J2.498
G1 X-0.712 Y-44.99
G2 X-0.873 Y-44.988 I-0.056 J2.499
G1 X-1.666 Y-44.955
G2 X-1.734 Y-44.951 I0.105 J2.498
G1 X-3.321 Y-44.841
G2 X-3.334 Y-44.84 I0.173 J2.494
G1 X-4.92 Y-44.721
G2 X-5.033 Y-44.71 I0.187 J2.493
G1 X-5.826 Y-44.614
G2 X-5.942 Y-44.598 I0.3 J2.482
G1 X-7.528 Y-44.33
G2 X-7.547 Y-44.327 I0.416 J2.465
G1 X-9.133 Y-44.047
G2 X-9.19 Y-44.036 I0.434 J2.462
G1 X-9.983 Y-43.878
G2 X-10.147 Y-43.839 I0.491 J2.451
G1 X-11.733 Y-43.409
G2 X-11.755 Y-43.402 I0.655 J2.413
G1 X-13.678 Y-42.861
G2 X-13.745 Y-42.841 I0.677 J2.407
G1 X-14.202 Y-42.699
G2 X-14.325 Y-42.657 I0.745 J2.387
G1 X-15.119 Y-42.363
G2 X-15.159 Y-42.348 I0.868 J2.344
G1 X-17.538 Y-41.42
G2 X-17.56 Y-41.411 I0.908 J2.329
G1 X-18.115 Y-41.189
G2 X-18.183 Y-41.16 I0.931 J2.32
G1 X-18.422 Y-41.056
G2 X-18.534 Y-41.004 I1 J2.292
G1 X-19.923 Y-40.315
G2 X-19.952 Y-40.3 I1.111 J2.24
G1 X-21.735 Y-39.386
G2 X-21.806 Y-39.348 I1.141 J2.225
G1 X-22.599 Y-38.909
G2 X-22.718 Y-38.839 I1.211 J2.187
G1 X-23.511 Y-38.34
G2 X-23.54 Y-38.322 I1.33 J2.117
G1 X-25.919 Y-36.78
G2 X-26.06 Y-36.682 I1.359 J2.098
G1 X-26.854 Y-36.087
G2 X-26.907 Y-36.045 I1.5 J2
G1 X-29.287 Y-34.157
G2 X-29.373 Y-34.085 I1.554 J1.958
G1 X-29.913 Y-33.615
G2 X-29.957 Y-33.576 I1.641 J1.886
G1 X-30.21 Y-33.345
G2 X-30.274 Y-33.285 I1.685 J1.847
G1 X-32.469 Y-31.136
G2 X-32.489 Y-31.117 I1.748 J1.787
G1 X-32.672 Y-30.934
G2 X-32.744 Y-30.859 I1.768 J1.768
G1 X-33.305 Y-30.249
G2 X-33.34 Y-30.21 I1.84 J1.693
G1 X-33.572 Y-29.947
G2 X-33.615 Y-29.897 I1.875 J1.654
G1 X-35.386 Y-27.781
G2 X-35.45 Y-27.701 I1.917 J1.604
G1 X-36.06 Y-26.908
G2 X-36.133 Y-26.809 I1.981 J1.525
G1 X-36.923 Y-25.671
G2 X-36.935 Y-25.653 I2.053 J1.426
G1 X-37.782 Y-24.412
G2 X-37.809 Y-24.37 I2.066 J1.408
G1 X-38.327 Y-23.577
G2 X-38.396 Y-23.465 I2.093 J1.367
G1 X-38.856 Y-22.672
G2 X-38.892 Y-22.608 I2.162 J1.255
G1 X-40.241 Y-20.118
G2 X-40.283 Y-20.037 I2.198 J1.19
G1 X-40.621 Y-19.353
G2 X-40.671 Y-19.246 I2.241 J1.109
G1 X-41.126 Y-18.206
G2 X-41.139 Y-18.175 I2.291 J1.002
G1 X-41.932 Y-16.294
G2 X-41.966 Y-16.209 I2.304 J0.971
G1 X-42.362 Y-15.165
G2 X-42.405 Y-15.04 I2.338 J0.886
G1 X-42.802 Y-13.799
G2 X-42.812 Y-13.769 I2.381 J0.762
G1 X-43.403 Y-11.837
G2 X-43.427 Y-11.756 I2.391 J0.732
G1 X-43.64 Y-10.963
G2 X-43.667 Y-10.855 I2.414 J0.651
G1 X-43.843 Y-10.062
G2 X-43.854 Y-10.014 I2.44 J0.543
G1 X-44.335 Y-7.634
G2 X-44.346 Y-7.574 I2.45 J0.495
G1 X-44.469 Y-6.875
G2 X-44.486 Y-6.765 I2.462 J0.435
G1 X-44.603 Y-5.878
G2 X-44.612 Y-5.802 I2.479 J0.326
G1 X-44.85 Y-3.423
G2 X-44.854 Y-3.378 I2.487 J0.25
G1 X-44.92 Y-2.585
G2 X-44.926 Y-2.483 I2.492 J0.206
G1 X-44.959 Y-1.69
G2 X-44.961 Y-1.594 I2.498 J0.103
G1 X-44.968 Y0.786
G2 Y0.816 I2.5 J0.008
G1 X-44.961 Y1.609
G2 X-44.959 Y1.69 I2.5 J-0.023
G1 X-44.926 Y2.483
G2 X-44.92 Y2.585 I2.498 J-0.103
G1 X-44.854 Y3.378
G2 X-44.85 Y3.423 I2.492 J-0.206
G1 X-44.612 Y5.802
G2 X-44.603 Y5.878 I2.487 J-0.25
G1 X-44.486 Y6.765
G2 X-44.469 Y6.875 I2.479 J-0.326
G1 X-44.346 Y7.574
G2 X-44.335 Y7.634 I2.462 J-0.435
G1 X-43.854 Y10.014
G2 X-43.843 Y10.063 I2.45 J-0.495
G1 X-43.654 Y10.909
G2 X-43.626 Y11.023 I2.44 J-0.544
G1 X-43.425 Y11.763
G2 X-43.403 Y11.838 I2.412 J-0.657
G1 X-42.674 Y14.218
G2 X-42.66 Y14.261 I2.39 J-0.733
G1 X-42.401 Y15.054
G2 X-42.362 Y15.165 I2.377 J-0.776
G1 X-41.966 Y16.209
G2 X-41.932 Y16.294 I2.338 J-0.886
G1 X-41.035 Y18.422
G2 X-41.018 Y18.462 I2.304 J-0.971
G1 X-40.667 Y19.255
G2 X-40.619 Y19.358 I2.286 J-1.011
G1 X-40.224 Y20.151
G2 X-40.183 Y20.23 I2.238 J-1.113
G1 X-38.891 Y22.61
G2 X-38.856 Y22.672 I2.197 J-1.193
G1 X-38.396 Y23.465
G2 X-38.325 Y23.581 I2.162 J-1.255
G1 X-37.754 Y24.452
G2 X-37.729 Y24.49 I2.091 J-1.37
G1 X-36.7 Y25.998
G2 X-36.682 Y26.024 I2.066 J-1.408
G1 X-36.125 Y26.82
G2 X-36.058 Y26.912 I2.048 J-1.434
G1 X-35.45 Y27.702
G2 X-35.386 Y27.781 I1.981 J-1.525
G1 X-33.615 Y29.897
G2 X-33.572 Y29.947 I1.917 J-1.604
G1 X-33.34 Y30.21
G2 X-33.305 Y30.249 I1.875 J-1.654
G1 X-32.744 Y30.859
G2 X-32.658 Y30.948 I1.84 J-1.693
G1 X-31.072 Y32.508
G2 X-31.062 Y32.518 I1.753 J-1.782
G1 X-30.269 Y33.29
G2 X-30.21 Y33.345 I1.743 J-1.792
G1 X-29.957 Y33.576
G2 X-29.913 Y33.615 I1.685 J-1.847
G1 X-29.373 Y34.085
G2 X-29.286 Y34.157 I1.641 J-1.886
G1 X-26.879 Y36.067
G2 X-26.824 Y36.11 I1.554 J-1.958
G1 X-26.059 Y36.683
G2 X-25.919 Y36.78 I1.499 J-2.001
G1 X-23.54 Y38.322
G2 X-23.511 Y38.34 I1.359 J-2.098
G1 X-22.718 Y38.839
G2 X-22.599 Y38.909 I1.33 J-2.117
G1 X-21.806 Y39.348
G2 X-21.731 Y39.388 I1.211 J-2.187
G1 X-19.352 Y40.602
G2 X-19.316 Y40.62 I1.137 J-2.227
G1 X-18.523 Y41.009
G2 X-18.422 Y41.056 I1.101 J-2.245
G1 X-18.183 Y41.16
G2 X-18.102 Y41.194 I1 J-2.292
G1 X-15.961 Y42.039
G2 X-15.942 Y42.046 I0.918 J-2.325
G1 X-15.149 Y42.352
G2 X-15.119 Y42.363 I0.899 J-2.333
G1 X-14.325 Y42.657
G2 X-14.202 Y42.699 I0.868 J-2.344
G1 X-13.745 Y42.841
G2 X-13.673 Y42.863 I0.745 J-2.387
G1 X-10.832 Y43.656
G2 X-10.805 Y43.663 I0.672 J-2.408
G1 X-10.136 Y43.842
G2 X-9.983 Y43.878 I0.645 J-2.415
G1 X-9.19 Y44.036
G2 X-9.128 Y44.048 I0.491 J-2.451
G1 X-6.514 Y44.504
G2 X-6.488 Y44.508 I0.43 J-2.463
G1 X-5.93 Y44.6
G2 X-5.826 Y44.614 I0.403 J-2.467
G1 X-5.033 Y44.71
G2 X-4.92 Y44.721 I0.3 J-2.482
G1 X-2.541 Y44.9
G2 X-2.514 Y44.901 I0.187 J-2.493
G1 X-1.721 Y44.952
G2 X-1.666 Y44.955 I0.16 J-2.495
G1 X-0.873 Y44.988
G2 X-0.712 Y44.99 I0.105 J-2.498
G1 X1.668 Y44.936
G2 X1.702 Y44.935 I-0.056 J-2.499
G1 X3.288 Y44.878
G2 X3.459 Y44.866 I-0.09 J-2.498
G1 X4.252 Y44.782
G2 X4.303 Y44.776 I-0.262 J-2.486
G1 X6.683 Y44.476
G2 X6.711 Y44.472 I-0.313 J-2.48
G1 X7.504 Y44.363
G2 X7.57 Y44.353 I-0.342 J-2.477
G1 X7.966 Y44.287
G2 X8.057 Y44.271 I-0.407 J-2.467
G1 X8.454 Y44.19
G2 X8.512 Y44.177 I-0.498 J-2.45
G1 X10.891 Y43.634
G2 X10.921 Y43.627 I-0.556 J-2.437
G1 X11.714 Y43.436
G2 X11.783 Y43.418 I-0.586 J-2.43
G1 X12.576 Y43.203
G2 X12.717 Y43.161 I-0.655 J-2.413
G1 X15.096 Y42.362
G2 X15.123 Y42.353 I-0.796 J-2.37
G1 X16.071 Y42.022
G2 X16.145 Y41.995 I-0.823 J-2.361
G1 X16.784 Y41.75
G2 X16.913 Y41.696 I-0.897 J-2.333
G1 X19.292 Y40.624
G2 X19.33 Y40.607 I-1.027 J-2.279
G1 X20.52 Y40.047
G2 X20.639 Y39.987 I-1.065 J-2.262
G1 X21.036 Y39.773
G2 X21.104 Y39.735 I-1.184 J-2.202
G1 X23.483 Y38.358
G2 X23.512 Y38.341 I-1.252 J-2.164
G1 X24.348 Y37.842
G2 X24.49 Y37.751 I-1.281 J-2.147
G1 X25.24 Y37.231
G2 X25.276 Y37.206 I-1.423 J-2.055
G1 X26.862 Y36.065
G2 X26.884 Y36.05 I-1.459 J-2.03
G1 X27.863 Y35.33
G2 X27.936 Y35.274 I-1.481 J-2.014
G1 X28.24 Y35.033
G2 X28.322 Y34.965 I-1.554 J-1.958
G1 X28.96 Y34.412
G2 X28.98 Y34.395 I-1.637 J-1.89
G1 X31.025 Y32.586
G2 X31.125 Y32.492 I-1.656 J-1.872
G1 X31.918 Y31.709
G2 X31.993 Y31.632 I-1.756 J-1.779
G1 X33.58 Y29.923
G2 X33.609 Y29.891 I-1.832 J-1.701
G1 X34.402 Y29.006
G2 X34.532 Y28.849 I-1.862 J-1.669
G1 X37.065 Y25.512
G2 X37.163 Y25.373 I-1.991 J-1.511
G1 X37.296 Y25.17
G2 X37.341 Y25.1 I-2.089 J-1.373
G1 X39.433 Y21.674
G2 X39.549 Y21.462 I-2.134 J-1.303
G1 X40.58 Y19.335
X40.583 Y19.329
X41.347 Y17.742
G2 X41.377 Y17.677 I-2.253 J-1.084
G1 X41.466 Y17.479
G2 X41.533 Y17.312 I-2.283 J-1.019
G1 X42.972 Y13.346
G2 X43.044 Y13.111 I-2.35 J-0.853
G1 X43.554 Y11.113
G3 X43.751 Y11.13 I0.097 J0.025
G1 X43.778 Y11.487
G3 X43.771 Y11.529 I-0.1 J0.007
G1 X40.466 Y20.299
G3 X40.443 Y20.335 I-0.094 J-0.035
G1 X40.188 Y20.589
G3 X40.028 Y20.474 I-0.071 J-0.071
G1 X40.58 Y19.335 Z-8.461 F333.3
X40.583 Y19.329 Z-8.463
X41.347 Y17.742 Z-9.104
G2 X41.377 Y17.678 Z-9.13 I-2.253 J-1.084
G1 X41.465 Y17.479 Z-9.209
G2 X41.533 Y17.312 Z-9.275 I-2.283 J-1.02
G1 X42.972 Y13.346 Z-10.81
G2 X43.044 Y13.111 Z-10.9 I-2.35 J-0.853
G1 X43.791 Y10.183 Z-12
X44.006 Y9.343 F1000
G2 X44.019 Y9.286 I-2.422 J-0.618
G1 X44.111 Y8.889
G2 X44.146 Y8.702 I-2.436 J-0.56
G1 X44.744 Y4.735
G2 X44.756 Y4.644 I-2.472 J-0.373
G1 X44.779 Y4.446
G2 X44.792 Y4.288 I-2.484 J-0.281
G1 X44.997 Y0.123
G2 Y-0.123 I-2.497 J-0.123
G1 X44.792 Y-4.288
G2 X44.771 Y-4.507 I-2.497 J0.123
G1 X44.689 Y-5.102
G2 X44.684 Y-5.132 I-2.476 J0.342
G1 X44.146 Y-8.702
G2 X44.111 Y-8.889 I-2.472 J0.373
G1 X44.019 Y-9.286
G2 X44.006 Y-9.343 I-2.436 J0.56
G1 X43.044 Y-13.111
G2 X42.972 Y-13.346 I-2.422 J0.618
G1 X41.533 Y-17.312
G2 X41.442 Y-17.531 I-2.35 J0.853
G1 X40.971 Y-18.523
G2 X40.965 Y-18.536 I-2.259 J1.072
G1 X39.819 Y-20.915
G2 X39.807 Y-20.94 I-2.252 J1.085
G1 X39.54 Y-21.48
G2 X39.433 Y-21.674 I-2.241 J1.109
G1 X37.341 Y-25.1
G2 X37.296 Y-25.171 I-2.134 J1.303
G1 X37.162 Y-25.374
G2 X37.065 Y-25.512 I-2.089 J1.374
G1 X34.532 Y-28.849
G2 X34.404 Y-29.005 I-1.991 J1.511
G1 X33.313 Y-30.223
G2 X33.283 Y-30.257 I-1.863 J1.667
G1 X32.547 Y-31.05
G2 X32.518 Y-31.081 I-1.833 J1.7
G1 X31.756 Y-31.874
G2 X31.707 Y-31.924 I-1.803 J1.731
G1 X31.123 Y-32.499
G2 X31.026 Y-32.59 I-1.755 J1.781
G1 X28.647 Y-34.697
G2 X28.559 Y-34.772 I-1.658 J1.871
G1 X27.952 Y-35.262
G2 X27.86 Y-35.332 I-1.569 J1.946
G1 X26.088 Y-36.631
G2 X26.069 Y-36.644 I-1.478 J2.017
G1 X25.276 Y-37.214
G2 X25.222 Y-37.252 I-1.459 J2.03
G1 X24.428 Y-37.791
G2 X24.299 Y-37.873 I-1.405 J2.068
G1 X22.713 Y-38.814
G2 X22.684 Y-38.831 I-1.275 J2.15
G1 X21.098 Y-39.743
G2 X20.978 Y-39.807 I-1.246 J2.167
G1 X20.185 Y-40.207
G2 X20.105 Y-40.246 I-1.126 J2.232
G1 X18.168 Y-41.139
G2 X18.135 Y-41.154 I-1.046 J2.27
G1 X16.9 Y-41.701
G2 X16.77 Y-41.755 I-1.014 J2.285
G1 X15.977 Y-42.054
G2 X15.906 Y-42.08 I-0.883 J2.339
G1 X13.756 Y-42.819
G2 X13.724 Y-42.83 I-0.813 J2.364
G1 X12.701 Y-43.166
G2 X12.575 Y-43.204 I-0.78 J2.375
G1 X11.782 Y-43.419
G2 X11.709 Y-43.437 I-0.654 J2.413
G1 X10.123 Y-43.816
G2 X10.096 Y-43.823 I-0.581 J2.431
G1 X8.51 Y-44.183
G2 X8.392 Y-44.207 I-0.554 J2.438
G1 X7.599 Y-44.348
G2 X7.503 Y-44.363 I-0.436 J2.462
G1 X5.917 Y-44.581
G2 X5.887 Y-44.585 I-0.34 J2.477
G1 X4.301 Y-44.783
G2 X4.231 Y-44.791 I-0.311 J2.481
G1 X3.438 Y-44.868
G2 X3.295 Y-44.878 I-0.241 J2.488
G1 X1.709 Y-44.94
G2 X1.677 Y-44.941 I-0.098 J2.498
G1 X0.091 Y-44.982
G2 X0.048 Y-44.983 I-0.066 J2.499
G1 X-0.745 Y-44.991
G2 X-0.873 Y-44.988 I-0.023 J2.5
G1 X-1.666 Y-44.955
G2 X-1.724 Y-44.952 I0.105 J2.498
G1 X-3.31 Y-44.849
G2 X-3.338 Y-44.847 I0.163 J2.495
G1 X-4.924 Y-44.725
G2 X-5.046 Y-44.713 I0.191 J2.493
G1 X-5.839 Y-44.613
G2 X-5.932 Y-44.599 I0.313 J2.48
G1 X-7.518 Y-44.339
G2 X-7.547 Y-44.334 I0.405 J2.467
G1 X-9.133 Y-44.054
G2 X-9.21 Y-44.039 I0.434 J2.462
G1 X-10.003 Y-43.873
G2 X-10.138 Y-43.841 I0.511 J2.447
G1 X-11.724 Y-43.417
G2 X-11.758 Y-43.408 I0.646 J2.415
G1 X-13.695 Y-42.861
G2 X-13.782 Y-42.834 I0.68 J2.406
G1 X-14.224 Y-42.692
G2 X-14.335 Y-42.653 I0.766 J2.38
G1 X-16.071 Y-42.002
G2 X-16.107 Y-41.989 I0.877 J2.341
G1 X-17.543 Y-41.425
G2 X-17.599 Y-41.402 I0.913 J2.327
G1 X-18.392 Y-41.068
G2 X-18.529 Y-41.006 I0.97 J2.304
G1 X-20.115 Y-40.223
G2 X-20.149 Y-40.206 I1.107 J2.242
G1 X-21.735 Y-39.393
G2 X-21.822 Y-39.346 I1.14 J2.225
G1 X-22.615 Y-38.9
G2 X-22.722 Y-38.836 I1.227 J2.178
G1 X-24.348 Y-37.809
G2 X-24.37 Y-37.795 I1.335 J2.114
G1 X-25.598 Y-37.002
G2 X-25.663 Y-36.959 I1.356 J2.1
G1 X-25.981 Y-36.739
G2 X-26.06 Y-36.682 I1.421 J2.057
G1 X-26.854 Y-36.087
G2 X-26.89 Y-36.059 I1.5 J2
G1 X-27.879 Y-35.288
G2 X-27.907 Y-35.266 I1.537 J1.972
G1 X-29.297 Y-34.151
G2 X-29.391 Y-34.072 I1.565 J1.95
G1 X-30.184 Y-33.368
G2 X-30.255 Y-33.303 I1.658 J1.871
G1 X-31.048 Y-32.543
G2 X-31.067 Y-32.525 I1.73 J1.805
G1 X-31.86 Y-31.749
G2 X-31.879 Y-31.73 I1.749 J1.787
G1 X-32.672 Y-30.937
G2 X-32.758 Y-30.847 I1.768 J1.768
G1 X-33.551 Y-29.971
G2 X-33.599 Y-29.916 I1.853 J1.678
G1 X-34.392 Y-28.987
G2 X-34.421 Y-28.953 I1.901 J1.623
G1 X-35.399 Y-27.766
G2 X-35.45 Y-27.701 I1.93 J1.589
G1 X-36.06 Y-26.908
G2 X-36.114 Y-26.836 I1.981 J1.525
G1 X-36.68 Y-26.042
G2 X-36.714 Y-25.994 I2.035 J1.452
G1 X-37.79 Y-24.407
G2 X-37.822 Y-24.36 I2.069 J1.404
G1 X-38.334 Y-23.566
G2 X-38.395 Y-23.467 I2.1 J1.356
G1 X-38.856 Y-22.674
G2 X-38.885 Y-22.623 I2.161 J1.257
G1 X-39.758 Y-21.036
G2 X-39.782 Y-20.992 I2.19 J1.205
G1 X-40.256 Y-20.089
G2 X-40.283 Y-20.037 I2.214 J1.162
G1 X-40.621 Y-19.353
G2 X-40.662 Y-19.265 I2.241 J1.109
G1 X-41.117 Y-18.248
G2 X-41.139 Y-18.198 I2.282 J1.021
G1 X-41.713 Y-16.836
G2 X-41.73 Y-16.795 I2.304 J0.971
G1 X-42.048 Y-16.002
G2 X-42.069 Y-15.947 I2.32 J0.93
G1 X-42.366 Y-15.154
G2 X-42.394 Y-15.074 I2.342 J0.876
G1 X-42.661 Y-14.281
G2 X-42.679 Y-14.225 I2.37 J0.796
G1 X-43.17 Y-12.638
G2 X-43.183 Y-12.596 I2.388 J0.74
G1 X-43.413 Y-11.803
G2 X-43.427 Y-11.756 I2.401 J0.698
G1 X-43.64 Y-10.963
G2 X-43.664 Y-10.868 I2.414 J0.651
G1 X-43.845 Y-10.075
G2 X-43.857 Y-10.021 I2.437 J0.556
G1 X-44.182 Y-8.435
G2 X-44.189 Y-8.4 I2.449 J0.503
G1 X-44.34 Y-7.607
G2 X-44.346 Y-7.573 I2.456 J0.468
G1 X-44.47 Y-6.874
G2 X-44.486 Y-6.765 I2.462 J0.434
G1 X-44.603 Y-5.878
G2 X-44.61 Y-5.817 I2.479 J0.326
G1 X-44.779 Y-4.23
G2 X-44.781 Y-4.205 I2.486 J0.264
G1 X-44.857 Y-3.412
G2 X-44.862 Y-3.36 I2.489 J0.239
G1 X-44.921 Y-2.566
G2 X-44.926 Y-2.483 I2.493 J0.187
G1 X-44.959 Y-1.69
G2 X-44.961 Y-1.637 I2.498 J0.103
G1 X-44.977 Y-0.844
G2 Y-0.793 I2.499 J0.051
G1 Y0.793
G2 Y0.844 I2.5
G1 X-44.961 Y1.637
G2 X-44.959 Y1.69 I2.499 J-0.051
G1 X-44.926 Y2.483
G2 X-44.921 Y2.566 I2.498 J-0.103
G1 X-44.862 Y3.36
G2 X-44.857 Y3.417 I2.493 J-0.187
G1 X-44.701 Y5.004
G2 X-44.698 Y5.039 I2.488 J-0.244
G1 X-44.608 Y5.832
G2 X-44.603 Y5.878 I2.484 J-0.28
G1 X-44.486 Y6.765
G2 X-44.47 Y6.874 I2.479 J-0.326
G1 X-44.346 Y7.573
G2 X-44.337 Y7.621 I2.462 J-0.434
G1 X-44.026 Y9.207
G2 X-44.02 Y9.235 I2.453 J-0.482
G1 X-43.855 Y10.028
G2 X-43.845 Y10.075 I2.447 J-0.51
G1 X-43.652 Y10.921
G2 X-43.626 Y11.023 I2.437 J-0.556
G1 X-43.425 Y11.763
G2 X-43.413 Y11.803 I2.412 J-0.657
G1 X-43.183 Y12.596
G2 X-43.17 Y12.638 I2.401 J-0.698
G1 X-42.679 Y14.225
G2 X-42.661 Y14.281 I2.388 J-0.74
G1 X-42.394 Y15.074
G2 X-42.362 Y15.163 I2.37 J-0.796
G1 X-41.966 Y16.209
G2 X-41.937 Y16.283 I2.338 J-0.885
G1 X-41.384 Y17.616
G2 X-41.376 Y17.636 I2.309 J-0.958
G1 X-41.039 Y18.429
G2 X-41.017 Y18.479 I2.301 J-0.978
G1 X-40.659 Y19.272
G2 X-40.619 Y19.358 I2.279 J-1.028
G1 X-40.224 Y20.151
G2 X-40.198 Y20.202 I2.238 J-1.113
G1 X-39.78 Y20.995
G2 X-39.758 Y21.036 I2.212 J-1.165
G1 X-38.885 Y22.623
G2 X-38.856 Y22.674 I2.19 J-1.205
G1 X-38.395 Y23.467
G2 X-38.334 Y23.566 I2.161 J-1.257
G1 X-37.763 Y24.451
G2 X-37.73 Y24.501 I2.1 J-1.356
G1 X-36.712 Y25.997
G2 X-36.68 Y26.043 I2.067 J-1.406
G1 X-36.112 Y26.839
G2 X-36.052 Y26.919 I2.035 J-1.452
G1 X-35.259 Y27.941
G2 X-35.205 Y28.008 I1.975 J-1.533
G1 X-34.077 Y29.363
G2 X-34.042 Y29.405 I1.921 J-1.6
G1 X-33.351 Y30.198
G2 X-33.309 Y30.245 I1.886 J-1.642
G1 X-32.748 Y30.857
G2 X-32.671 Y30.938 I1.844 J-1.688
G1 X-31.695 Y31.912
G2 X-31.674 Y31.932 I1.766 J-1.77
G1 X-30.861 Y32.726
G2 X-30.839 Y32.746 I1.746 J-1.79
G1 X-30.249 Y33.308
G2 X-30.184 Y33.368 I1.724 J-1.811
G1 X-29.391 Y34.072
G2 X-29.295 Y34.153 I1.658 J-1.871
G1 X-27.709 Y35.422
G2 X-27.68 Y35.445 I1.562 J-1.952
G1 X-26.859 Y36.083
G2 X-26.824 Y36.11 I1.534 J-1.974
G1 X-26.059 Y36.683
G2 X-25.981 Y36.739 I1.499 J-2.001
G1 X-25.663 Y36.959
G2 X-25.591 Y37.007 I1.421 J-2.057
G1 X-23.53 Y38.328
G2 X-23.511 Y38.34 I1.349 J-2.104
G1 X-22.718 Y38.839
G2 X-22.615 Y38.9 I1.33 J-2.117
G1 X-21.822 Y39.346
G2 X-21.732 Y39.395 I1.227 J-2.178
G1 X-19.957 Y40.301
G2 X-19.926 Y40.317 I1.137 J-2.226
G1 X-18.528 Y41.006
G2 X-18.392 Y41.068 I1.106 J-2.242
G1 X-17.599 Y41.402
G2 X-17.541 Y41.426 I0.97 J-2.304
G1 X-15.954 Y42.047
G2 X-15.919 Y42.06 I0.911 J-2.328
G1 X-14.333 Y42.654
G2 X-14.224 Y42.692 I0.876 J-2.341
G1 X-13.782 Y42.834
G2 X-13.695 Y42.861 I0.766 J-2.38
G1 X-11.758 Y43.408
G2 X-11.724 Y43.417 I0.68 J-2.406
G1 X-10.138 Y43.841
G2 X-10.003 Y43.873 I0.646 J-2.415
G1 X-9.21 Y44.039
G2 X-9.133 Y44.054 I0.511 J-2.447
G1 X-7.547 Y44.334
G2 X-7.518 Y44.339 I0.434 J-2.462
G1 X-5.932 Y44.599
G2 X-5.839 Y44.613 I0.405 J-2.467
G1 X-5.046 Y44.713
G2 X-4.917 Y44.726 I0.313 J-2.48
G1 X-2.538 Y44.901
G2 X-2.51 Y44.903 I0.184 J-2.493
G1 X-1.717 Y44.952
G2 X-1.666 Y44.955 I0.156 J-2.495
G1 X-0.873 Y44.988
G2 X-0.745 Y44.991 I0.105 J-2.498
G1 X0.048 Y44.983
G2 X0.091 Y44.982 I-0.023 J-2.5
G1 X1.677 Y44.941
G2 X1.709 Y44.94 I-0.066 J-2.499
G1 X3.295 Y44.878
G2 X3.438 Y44.868 I-0.098 J-2.498
G1 X4.231 Y44.791
G2 X4.307 Y44.783 I-0.241 J-2.488
G1 X6.355 Y44.521
G2 X6.38 Y44.518 I-0.317 J-2.48
G1 X7.504 Y44.363
G2 X7.599 Y44.348 I-0.342 J-2.477
G1 X8.392 Y44.207
G2 X8.517 Y44.182 I-0.436 J-2.462
G1 X10.896 Y43.633
G2 X10.921 Y43.627 I-0.562 J-2.436
G1 X11.714 Y43.436
G2 X11.782 Y43.419 I-0.587 J-2.43
G1 X12.575 Y43.204
G2 X12.707 Y43.164 I-0.654 J-2.413
G1 X14.293 Y42.639
G2 X14.326 Y42.627 I-0.786 J-2.373
G1 X16.067 Y42.023
G2 X16.145 Y41.995 I-0.819 J-2.362
G1 X16.784 Y41.75
G2 X16.903 Y41.7 I-0.897 J-2.333
G1 X18.489 Y40.994
G2 X18.523 Y40.979 I-1.017 J-2.284
G1 X20.109 Y40.244
G2 X20.185 Y40.207 I-1.05 J-2.269
G1 X20.978 Y39.807
G2 X21.101 Y39.741 I-1.126 J-2.232
G1 X22.985 Y38.654
G2 X23.015 Y38.636 I-1.249 J-2.166
G1 X24.347 Y37.843
G2 X24.475 Y37.761 I-1.28 J-2.148
G1 X25.225 Y37.25
G2 X25.281 Y37.211 I-1.408 J-2.066
G1 X26.867 Y36.064
G2 X26.887 Y36.05 I-1.464 J-2.026
G1 X27.866 Y35.327
G2 X27.952 Y35.262 I-1.484 J-2.012
G1 X28.559 Y34.772
G2 X28.647 Y34.697 I-1.569 J-1.946
G1 X31.026 Y32.59
G2 X31.131 Y32.492 I-1.658 J-1.871
G1 X31.924 Y31.704
G2 X31.979 Y31.647 I-1.762 J-1.773
G1 X32.772 Y30.807
G2 X32.793 Y30.784 I-1.818 J-1.716
G1 X33.587 Y29.923
G2 X33.616 Y29.891 I-1.839 J-1.694
G1 X34.409 Y28.999
G2 X34.532 Y28.849 I-1.868 J-1.661
G1 X37.065 Y25.512
G2 X37.162 Y25.374 I-1.991 J-1.511
G1 X37.296 Y25.171
G2 X37.341 Y25.1 I-2.089 J-1.374
G1 X39.433 Y21.674
G2 X39.549 Y21.462 I-2.134 J-1.303
G1 X40.58 Y19.335
X40.583 Y19.329
X41.347 Y17.742
G2 X41.377 Y17.678 I-2.253 J-1.084
G1 X41.465 Y17.479
G2 X41.533 Y17.312 I-2.283 J-1.02
G1 X42.972 Y13.346
G2 X43.044 Y13.111 I-2.35 J-0.853
G1 X43.791 Y10.183
G3 X43.925 Y10.114 I0.097 J0.025
G1 X50.345 Y12.61
G3 X50.406 Y12.725 I-0.036 J0.093
G1 X50.378 Y12.854
X50.376 Y12.861
X49.207 Y16.788
X49.204 Y16.795
X48.69 Y18.135
X47.683 Y20.715
X47.681 Y20.72
X47.489 Y21.147
X45.969 Y24.255
X45.605 Y24.956
X45.602 Y24.961
X43.773 Y28.03
X43.317 Y28.736
X41.119 Y31.814
X40.914 Y32.075
X38.581 Y34.83
X37.877 Y35.594
X35.57 Y37.901
X34.833 Y38.579
X32.093 Y40.9
X31.832 Y41.106
X31.828 Y41.109
X28.756 Y43.303
X28.049 Y43.761
X24.978 Y45.591
X24.973 Y45.594
X24.275 Y45.96
X21.164 Y47.481
X20.753 Y47.668
X20.747 Y47.67
X16.838 Y49.192
X16.83 Y49.194
X12.88 Y50.37
X12.873 Y50.372
X12.185 Y50.526
X9.058 Y51.182
X8.368 Y51.31
X8.362 Y51.311
X4.543 Y51.787
X4.537 Y51.788
X3.851 Y51.836
X0.028 Y51.995
X0.02
X-3.806 Y51.838
X-4.494 Y51.793
X-4.499
X-8.319 Y51.316
X-8.324
X-9.012 Y51.191
X-12.14 Y50.535
X-12.829 Y50.385
X-12.836 Y50.383
X-16.83 Y49.194
X-16.838 Y49.192
X-20.751 Y47.669
X-20.756 Y47.667
X-21.115 Y47.505
X-24.229 Y45.982
X-24.929 Y45.621
X-24.934 Y45.618
X-28.002 Y43.789
X-28.708 Y43.337
X-31.784 Y41.14
X-32.096 Y40.897
X-34.832 Y38.579
X-35.519 Y37.951
X-37.917 Y35.553
X-38.576 Y34.836
X-40.867 Y32.132
X-41.12 Y31.813
X-41.123 Y31.809
X-43.311 Y28.745
X-43.314 Y28.74
X-43.844 Y27.91
X-45.602 Y24.961
X-45.605 Y24.956
X-45.968 Y24.258
X-47.497 Y21.131
X-47.638 Y20.83
X-47.641 Y20.824
X-49.157 Y16.939
X-49.159 Y16.931
X-50.374 Y12.866
X-50.376 Y12.859
X-50.695 Y11.379
X-51.186 Y9.038
X-51.313 Y8.348
Y8.342
X-51.79 Y4.522
Y4.516
X-51.837 Y3.83
X-51.996 Y0.004
Y-0.004
X-51.837 Y-3.828
X-51.79 Y-4.516
Y-4.522
X-51.423 Y-7.466
X-51.313 Y-8.342
Y-8.348
X-51.186 Y-9.035
X-50.53 Y-12.164
X-50.378 Y-12.852
X-50.376 Y-12.859
X-49.159 Y-16.931
X-49.157 Y-16.939
X-47.646 Y-20.811
X-47.643 Y-20.818
X-47.115 Y-21.911
X-45.969 Y-24.255
X-45.605 Y-24.956
X-45.602 Y-24.961
X-43.773 Y-28.03
X-43.317 Y-28.736
X-41.123 Y-31.809
X-41.12 Y-31.813
X-40.869 Y-32.129
X-38.553 Y-34.863
X-37.83 Y-35.64
X-35.523 Y-37.947
X-34.806 Y-38.601
X-32.099 Y-40.894
X-31.788 Y-41.138
X-28.717 Y-43.33
X-28.713 Y-43.334
X-27.856 Y-43.877
X-24.934 Y-45.618
X-24.929 Y-45.621
X-24.231 Y-45.981
X-21.118 Y-47.503
X-20.756 Y-47.667
X-20.751 Y-47.669
X-16.838 Y-49.192
X-16.83 Y-49.194
X-12.843 Y-50.381
X-12.836 Y-50.383
X-10.562 Y-50.867
X-9.014 Y-51.191
X-8.324 Y-51.316
X-8.319
X-4.499 Y-51.793
X-4.494
X-3.808 Y-51.838
X0.02 Y-51.995
X0.028
X3.849 Y-51.837
X4.537 Y-51.788
X4.543 Y-51.787
X8.362 Y-51.311
X8.368 Y-51.31
X9.056 Y-51.182
X12.184 Y-50.526
X12.873 Y-50.372
X12.88 Y-50.37
X16.83 Y-49.194
X16.838 Y-49.192
X20.747 Y-47.67
X20.753 Y-47.668
X21.162 Y-47.482
X24.273 Y-45.961
X24.973 Y-45.594
X24.978 Y-45.591
X28.046 Y-43.763
X28.752 Y-43.305
X31.828 Y-41.109
X31.832 Y-41.106
X32.09 Y-40.902
X34.846 Y-38.567
X35.609 Y-37.861
X37.916 Y-35.554
X38.594 Y-34.815
X39.753 Y-33.446
X40.912 Y-32.078
X41.116 Y-31.818
X43.315 Y-28.739
X43.771 Y-28.033
X45.602 Y-24.961
X45.605 Y-24.956
X45.968 Y-24.258
X47.488 Y-21.15
X47.681 Y-20.72
X47.683 Y-20.715
X48.996 Y-17.35
X49.202 Y-16.803
X49.204 Y-16.796
X50.374 Y-12.868
X50.376 Y-12.86
X50.715 Y-11.285
X51.186 Y-9.038
X51.313 Y-8.348
Y-8.342
X51.79 Y-4.522
Y-4.516
X51.837 Y-3.83
X51.996 Y-0.004
Y0.004
X51.837 Y3.828
X51.79 Y4.516
Y4.522
X51.313 Y8.342
Y8.348
X51.186 Y9.035
X50.53 Y12.164
X50.406 Y12.725
G3 X50.333 Y12.723 I-0.036 J-0.008
G1 X50.314 Y12.591
X51.752 Y2.925
X51.809 Y2.802
G3 X51.879 Y2.82 I0.033 J0.016
G1 X51.837 Y3.828 Z-12.367 F333.3
X51.79 Y4.516 Z-12.618
Y4.522 Z-12.62
X51.313 Y8.342 Z-14.022
Y8.348 Z-14.024
X51.186 Y9.035 Z-14.278
X50.53 Y12.164 Z-15.442
X50.378 Y12.854 Z-15.699
X50.376 Y12.861 Z-15.701
X50.142 Y13.647 Z-16
X49.207 Y16.788 F1000
X49.204 Y16.795
X48.69 Y18.135
X47.683 Y20.715
X47.681 Y20.72
X47.489 Y21.147
X45.969 Y24.255
X45.605 Y24.956
X45.602 Y24.961
X43.773 Y28.03
X43.317 Y28.736
X41.119 Y31.814
X40.914 Y32.075
X38.581 Y34.83
X37.877 Y35.594
X35.57 Y37.901
X34.833 Y38.579
X32.093 Y40.9
X31.832 Y41.106
X31.828 Y41.109
X28.756 Y43.303
X28.049 Y43.761
X24.978 Y45.591
X24.973 Y45.594
X24.275 Y45.96
X21.164 Y47.481
X20.753 Y47.668
X20.747 Y47.67
X16.838 Y49.192
X16.83 Y49.194
X12.88 Y50.37
X12.873 Y50.372
X12.185 Y50.526
X9.058 Y51.182
X8.368 Y51.31
X8.362 Y51.311
X4.543 Y51.787
X4.537 Y51.788
X3.851 Y51.836
X0.028 Y51.995
X0.02
X-3.806 Y51.838
X-4.494 Y51.793
X-4.499
X-8.319 Y51.316
X-8.324
X-9.012 Y51.191
X-12.14 Y50.535
X-12.829 Y50.385
X-12.836 Y50.383
X-16.83 Y49.194
X-16.838 Y49.192
X-20.751 Y47.669
X-20.756 Y47.667
X-21.115 Y47.505
X-24.229 Y45.982
X-24.929 Y45.621
X-24.934 Y45.618
X-28.002 Y43.789
X-28.708 Y43.337
X-31.784 Y41.14
X-32.096 Y40.897
X-34.832 Y38.579
X-35.519 Y37.951
X-37.917 Y35.553
X-38.576 Y34.836
X-40.867 Y32.132
X-41.12 Y31.813
X-41.123 Y31.809
X-43.311 Y28.745
X-43.314 Y28.74
X-43.844 Y27.91
X-45.602 Y24.961
X-45.605 Y24.956
X-45.968 Y24.258
X-47.497 Y21.131
X-47.638 Y20.83
X-47.641 Y20.824
X-49.157 Y16.939
X-49.159 Y16.931
X-50.374 Y12.866
X-50.376 Y12.859
X-50.695 Y11.379
X-51.186 Y9.038
X-51.313 Y8.348
Y8.342
X-51.79 Y4.522
Y4.516
X-51.837 Y3.83
X-51.996 Y0.004
Y-0.004
X-51.837 Y-3.828
X-51.79 Y-4.516
Y-4.522
X-51.423 Y-7.466
X-51.313 Y-8.342
Y-8.348
X-51.186 Y-9.035
X-50.53 Y-12.164
X-50.378 Y-12.852
X-50.376 Y-12.859
X-49.159 Y-16.931
X-49.157 Y-16.939
X-47.646 Y-20.811
X-47.643 Y-20.818
X-47.115 Y-21.911
X-45.969 Y-24.255
X-45.605 Y-24.956
X-45.602 Y-24.961
X-43.773 Y-28.03
X-43.317 Y-28.736
X-41.123 Y-31.809
X-41.12 Y-31.813
X-40.869 Y-32.129
X-38.553 Y-34.863
X-37.83 Y-35.64
X-35.523 Y-37.947
X-34.806 Y-38.601
X-32.099 Y-40.894
X-31.788 Y-41.138
X-28.717 Y-43.33
X-28.713 Y-43.334
X-27.856 Y-43.877
X-24.934 Y-45.618
X-24.929 Y-45.621
X-24.231 Y-45.981
X-21.118 Y-47.503
X-20.756 Y-47.667
X-20.751 Y-47.669
X-16.838 Y-49.192
X-16.83 Y-49.194
X-12.843 Y-50.381
X-12.836 Y-50.383
X-10.562 Y-50.867
X-9.014 Y-51.191
X-8.324 Y-51.316
X-8.319
X-4.499 Y-51.793
X-4.494
X-3.808 Y-51.838
X0.02 Y-51.995
X0.028
X3.849 Y-51.837
X4.537 Y-51.788
X4.543 Y-51.787
X8.362 Y-51.311
X8.368 Y-51.31
X9.056 Y-51.182
X12.184 Y-50.526
X12.873 Y-50.372
X12.88 Y-50.37
X16.83 Y-49.194
X16.838 Y-49.192
X20.747 Y-47.67
X20.753 Y-47.668
X21.162 Y-47.482
X24.273 Y-45.961
X24.973 Y-45.594
X24.978 Y-45.591
X28.046 Y-43.763
X28.752 Y-43.305
X31.828 Y-41.109
X31.832 Y-41.106
X32.09 Y-40.902
X34.846 Y-38.567
X35.609 Y-37.861
X37.916 Y-35.554
X38.594 Y-34.815
X40.912 Y-32.078
X41.116 Y-31.818
X43.315 Y-28.739
X43.771 Y-28.033
X45.602 Y-24.961
X45.605 Y-24.956
X45.968 Y-24.258
X47.488 Y-21.15
X47.681 Y-20.72
X47.683 Y-20.715
X48.996 Y-17.35
X49.202 Y-16.803
X49.204 Y-16.796
X50.374 Y-12.868
X50.376 Y-12.86
X50.715 Y-11.285
X51.186 Y-9.038
X51.313 Y-8.348
Y-8.342
X51.79 Y-4.522
Y-4.516
X51.837 Y-3.83
X51.996 Y-0.004
Y0.004
X51.837 Y3.828
X51.79 Y4.516
Y4.522
X51.313 Y8.342
Y8.348
X51.186 Y9.035
X50.53 Y12.164
X50.378 Y12.854
X50.376 Y12.861
X50.142 Y13.647
G3 X50.01 Y13.712 I-0.096 J-0.029
G1 X43.615 Y11.231
G3 X43.554 Y11.113 I0.036 J-0.093
G1 X44.006 Y9.343
G2 X44.019 Y9.286 I-2.422 J-0.618
G1 X44.111 Y8.889
G2 X44.146 Y8.702 I-2.436 J-0.56
G1 X44.744 Y4.735
G2 X44.756 Y4.644 I-2.472 J-0.373
G1 X44.779 Y4.446
G2 X44.792 Y4.288 I-2.484 J-0.281
G1 X44.997 Y0.123
G2 Y-0.123 I-2.497 J-0.123
G1 X44.792 Y-4.288
G2 X44.771 Y-4.507 I-2.497 J0.123
G1 X44.689 Y-5.102
G2 X44.684 Y-5.132 I-2.476 J0.342
G1 X44.146 Y-8.702
G2 X44.111 Y-8.889 I-2.472 J0.373
G1 X44.019 Y-9.286
G2 X44.006 Y-9.343 I-2.436 J0.56
G1 X43.044 Y-13.111
G2 X42.972 Y-13.346 I-2.422 J0.618
G1 X41.533 Y-17.312
G2 X41.442 Y-17.531 I-2.35 J0.853
G1 X40.971 Y-18.523
G2 X40.965 Y-18.536 I-2.259 J1.072
G1 X39.819 Y-20.915
G2 X39.807 Y-20.94 I-2.253 J1.085
G1 X39.54 Y-21.48
G2 X39.433 Y-21.674 I-2.24 J1.109
G1 X37.341 Y-25.1
G2 X37.296 Y-25.172 I-2.134 J1.303
G1 X37.161 Y-25.375
G2 X37.065 Y-25.512 I-2.088 J1.375
G1 X34.532 Y-28.849
G2 X34.409 Y-28.999 I-1.991 J1.511
G1 X33.325 Y-30.218
G2 X33.296 Y-30.249 I-1.868 J1.661
G1 X32.566 Y-31.042
G2 X32.516 Y-31.096 I-1.84 J1.693
G1 X31.742 Y-31.889
G2 X31.708 Y-31.923 I-1.789 J1.746
G1 X31.123 Y-32.499
G2 X31.035 Y-32.582 I-1.755 J1.781
G1 X29.448 Y-34
G2 X29.424 Y-34.022 I-1.666 J1.864
G1 X28.63 Y-34.712
G2 X28.558 Y-34.773 I-1.641 J1.886
G1 X27.951 Y-35.262
G2 X27.862 Y-35.331 I-1.568 J1.947
G1 X25.7 Y-36.917
G2 X25.68 Y-36.932 I-1.479 J2.015
G1 X25.276 Y-37.222
G2 X25.207 Y-37.271 I-1.459 J2.03
G1 X24.414 Y-37.801
G2 X24.296 Y-37.875 I-1.39 J2.078
G1 X21.917 Y-39.281
G2 X21.87 Y-39.308 I-1.272 J2.152
G1 X21.077 Y-39.754
G2 X20.978 Y-39.807 I-1.226 J2.179
G1 X20.185 Y-40.207
G2 X20.112 Y-40.243 I-1.126 J2.232
G1 X18.192 Y-41.135
G2 X18.166 Y-41.147 I-1.054 J2.267
G1 X17.708 Y-41.354
G2 X17.667 Y-41.372 I-1.028 J2.279
G1 X16.874 Y-41.713
G2 X16.77 Y-41.755 I-0.988 J2.297
G1 X15.977 Y-42.054
G2 X15.913 Y-42.077 I-0.883 J2.339
G1 X13.785 Y-42.816
G2 X13.731 Y-42.834 I-0.82 J2.362
G1 X12.687 Y-43.171
G2 X12.575 Y-43.204 I-0.766 J2.38
G1 X11.782 Y-43.419
G2 X11.708 Y-43.438 I-0.654 J2.413
G1 X9.328 Y-44.005
G2 X9.281 Y-44.016 I-0.58 J2.432
G1 X8.488 Y-44.188
G2 X8.392 Y-44.207 I-0.532 J2.443
G1 X7.599 Y-44.348
G2 X7.5 Y-44.363 I-0.436 J2.462
G1 X5.121 Y-44.687
G2 X5.094 Y-44.691 I-0.337 J2.477
G1 X4.301 Y-44.79
G2 X4.211 Y-44.8 I-0.31 J2.481
G1 X3.417 Y-44.87
G2 X3.293 Y-44.878 I-0.22 J2.49
G1 X0.913 Y-44.968
G2 X0.88 Y-44.969 I-0.095 J2.498
G1 X0.087 Y-44.989
G2 X0.027 Y-44.99 I-0.062 J2.499
G1 X-0.766 Y-44.991
G2 X-0.873 Y-44.988 I-0.002 J2.5
G1 X-1.666 Y-44.955
G2 X-1.717 Y-44.952 I0.105 J2.498
G1 X-3.303 Y-44.853
G2 X-3.327 Y-44.852 I0.156 J2.495
G1 X-4.12 Y-44.795
G2 X-4.156 Y-44.792 I0.179 J2.494
G1 X-4.949 Y-44.723
G2 X-5.046 Y-44.713 I0.216 J2.491
G1 X-5.839 Y-44.613
G2 X-5.935 Y-44.599 I0.313 J2.48
G1 X-8.314 Y-44.205
G2 X-8.343 Y-44.2 I0.408 J2.466
G1 X-9.136 Y-44.059
G2 X-9.227 Y-44.041 I0.438 J2.461
G1 X-10.02 Y-43.87
G2 X-10.141 Y-43.841 I0.528 J2.444
G1 X-12.52 Y-43.201
G2 X-12.548 Y-43.193 I0.649 J2.414
G1 X-13.341 Y-42.97
G2 X-13.419 Y-42.947 I0.677 J2.407
G1 X-14.212 Y-42.696
G2 X-14.338 Y-42.652 I0.755 J2.383
G1 X-16.717 Y-41.756
G2 X-16.75 Y-41.744 I0.881 J2.34
G1 X-17.543 Y-41.433
G2 X-17.617 Y-41.402 I0.913 J2.327
G1 X-18.41 Y-41.061
G2 X-18.534 Y-41.003 I0.988 J2.297
G1 X-20.914 Y-39.822
G2 X-20.948 Y-39.805 I1.112 J2.239
G1 X-21.741 Y-39.396
G2 X-21.833 Y-39.346 I1.146 J2.222
G1 X-22.626 Y-38.893
G2 X-22.718 Y-38.839 I1.238 J2.172
G1 X-24.351 Y-37.812
G2 X-24.381 Y-37.793 I1.33 J2.117
G1 X-25.605 Y-37
G2 X-25.679 Y-36.95 I1.36 J2.098
G1 X-25.994 Y-36.73
G2 X-26.06 Y-36.682 I1.434 J2.048
G1 X-26.854 Y-36.087
G2 X-26.891 Y-36.058 I1.5 J2
G1 X-28.477 Y-34.82
G2 X-28.498 Y-34.804 I1.538 J1.971
G1 X-28.908 Y-34.477
G2 X-28.956 Y-34.438 I1.559 J1.955
G1 X-29.339 Y-34.116
G2 X-29.391 Y-34.072 I1.607 J1.915
G1 X-30.184 Y-33.368
G2 X-30.241 Y-33.316 I1.658 J1.871
G1 X-31.034 Y-32.568
G2 X-31.082 Y-32.522 I1.715 J1.819
G1 X-32.668 Y-30.944
G2 X-32.76 Y-30.847 I1.763 J1.772
G1 X-33.553 Y-29.968
G2 X-33.572 Y-29.947 I1.856 J1.675
G1 X-34.04 Y-29.417
G2 X-34.077 Y-29.374 I1.875 J1.654
G1 X-34.745 Y-28.581
G2 X-34.786 Y-28.532 I1.911 J1.611
G1 X-35.421 Y-27.738
G2 X-35.45 Y-27.701 I1.952 J1.562
G1 X-36.06 Y-26.908
G2 X-36.113 Y-26.837 I1.981 J1.525
G1 X-36.904 Y-25.73
G2 X-36.946 Y-25.67 I2.034 J1.453
G1 X-37.739 Y-24.487
G2 X-37.763 Y-24.451 I2.076 J1.393
G1 X-38.334 Y-23.566
G2 X-38.401 Y-23.457 I2.1 J1.356
G1 X-39.314 Y-21.871
G2 X-39.342 Y-21.82 I2.167 J1.247
G1 X-39.774 Y-21.026
G2 X-39.803 Y-20.972 I2.196 J1.196
G1 X-40.266 Y-20.069
G2 X-40.283 Y-20.037 I2.224 J1.142
G1 X-40.621 Y-19.353
G2 X-40.659 Y-19.272 I2.241 J1.109
G1 X-41.114 Y-18.264
G2 X-41.137 Y-18.211 I2.279 J1.028
G1 X-41.718 Y-16.84
G2 X-41.744 Y-16.778 I2.302 J0.976
G1 X-42.055 Y-15.984
G2 X-42.069 Y-15.947 I2.327 J0.913
G1 X-42.366 Y-15.154
G2 X-42.394 Y-15.074 I2.342 J0.876
G1 X-42.791 Y-13.892
G2 X-42.811 Y-13.831 I2.37 J0.796
G1 X-43.179 Y-12.633
G2 X-43.2 Y-12.562 I2.39 J0.735
G1 X-43.637 Y-10.976
G2 X-43.666 Y-10.859 I2.41 J0.664
G1 X-44.022 Y-9.272
G2 X-44.032 Y-9.221 I2.44 J0.547
G1 X-44.193 Y-8.428
G2 X-44.204 Y-8.37 I2.45 J0.495
G1 X-44.469 Y-6.877
G2 X-44.487 Y-6.757 I2.461 J0.437
G1 X-44.702 Y-5.076
G2 X-44.71 Y-5.008 I2.48 J0.317
G1 X-44.789 Y-4.215
G2 X-44.794 Y-4.165 I2.488 J0.249
G1 X-44.92 Y-2.579
G2 X-44.926 Y-2.483 I2.492 J0.199
G1 X-44.959 Y-1.69
G2 X-44.96 Y-1.649 I2.498 J0.103
G1 X-44.98 Y-0.856
G2 X-44.981 Y-0.81 I2.499 J0.062
G1 X-44.986 Y-0.017
G2 Y0.017 I2.5 J0.017
G1 X-44.981 Y0.81
G2 X-44.98 Y0.856 I2.5 J-0.017
G1 X-44.96 Y1.649
G2 X-44.959 Y1.69 I2.499 J-0.062
G1 X-44.926 Y2.483
G2 X-44.92 Y2.579 I2.498 J-0.103
G1 X-44.794 Y4.165
G2 X-44.789 Y4.215 I2.492 J-0.199
G1 X-44.71 Y5.008
G2 X-44.702 Y5.076 I2.488 J-0.249
G1 X-44.487 Y6.757
G2 X-44.469 Y6.877 I2.48 J-0.317
G1 X-44.204 Y8.37
G2 X-44.193 Y8.428 I2.461 J-0.437
G1 X-44.032 Y9.221
G2 X-44.021 Y9.272 I2.45 J-0.495
G1 X-43.654 Y10.912
G2 X-43.624 Y11.033 I2.439 J-0.547
G1 X-43.199 Y12.566
G2 X-43.179 Y12.633 I2.409 J-0.667
G1 X-42.811 Y13.831
G2 X-42.791 Y13.892 I2.39 J-0.735
G1 X-42.394 Y15.074
G2 X-42.362 Y15.163 I2.37 J-0.796
G1 X-41.966 Y16.209
G2 X-41.956 Y16.238 I2.338 J-0.885
G1 X-41.744 Y16.778
G2 X-41.718 Y16.84 I2.327 J-0.913
G1 X-41.137 Y18.211
G2 X-41.114 Y18.264 I2.302 J-0.976
G1 X-40.659 Y19.272
G2 X-40.619 Y19.358 I2.279 J-1.028
G1 X-40.224 Y20.151
G2 X-40.21 Y20.179 I2.238 J-1.113
G1 X-39.803 Y20.973
G2 X-39.774 Y21.026 I2.224 J-1.142
G1 X-39.342 Y21.82
G2 X-39.314 Y21.871 I2.196 J-1.196
G1 X-38.401 Y23.457
G2 X-38.334 Y23.566 I2.167 J-1.247
G1 X-37.763 Y24.451
G2 X-37.739 Y24.487 I2.1 J-1.356
G1 X-36.946 Y25.67
G2 X-36.904 Y25.73 I2.076 J-1.393
G1 X-36.111 Y26.84
G2 X-36.052 Y26.919 I2.034 J-1.453
G1 X-35.259 Y27.941
G2 X-35.235 Y27.972 I1.975 J-1.533
G1 X-34.785 Y28.533
G2 X-34.745 Y28.581 I1.951 J-1.563
G1 X-34.077 Y29.374
G2 X-34.04 Y29.417 I1.911 J-1.611
G1 X-33.34 Y30.21
G2 X-33.313 Y30.24 I1.875 J-1.654
G1 X-32.752 Y30.856
G2 X-32.666 Y30.946 I1.848 J-1.684
G1 X-30.889 Y32.71
G2 X-30.827 Y32.769 I1.761 J-1.774
G1 X-29.971 Y33.563
G2 X-29.917 Y33.611 I1.7 J-1.833
G1 X-29.378 Y34.083
G2 X-29.339 Y34.116 I1.646 J-1.882
G1 X-28.956 Y34.438
G2 X-28.897 Y34.486 I1.607 J-1.915
G1 X-27.694 Y35.434
G2 X-27.68 Y35.445 I1.548 J-1.963
G1 X-26.859 Y36.083
G2 X-26.824 Y36.11 I1.534 J-1.974
G1 X-26.059 Y36.683
G2 X-25.994 Y36.73 I1.499 J-2.001
G1 X-25.679 Y36.95
G2 X-25.604 Y37.001 I1.434 J-2.048
G1 X-24.332 Y37.824
G2 X-24.304 Y37.842 I1.359 J-2.099
G1 X-22.718 Y38.839
G2 X-22.626 Y38.893 I1.33 J-2.117
G1 X-21.833 Y39.346
G2 X-21.729 Y39.402 I1.238 J-2.172
G1 X-20.143 Y40.209
G2 X-20.115 Y40.223 I1.134 J-2.228
G1 X-18.529 Y41.006
G2 X-18.41 Y41.061 I1.107 J-2.242
G1 X-17.617 Y41.402
G2 X-17.531 Y41.437 I0.988 J-2.297
G1 X-15.945 Y42.051
G2 X-15.919 Y42.06 I0.902 J-2.332
G1 X-14.333 Y42.654
G2 X-14.212 Y42.696 I0.876 J-2.341
G1 X-13.419 Y42.947
G2 X-13.33 Y42.973 I0.755 J-2.383
G1 X-11.744 Y43.412
G2 X-11.724 Y43.417 I0.666 J-2.41
G1 X-10.138 Y43.841
G2 X-10.02 Y43.87 I0.646 J-2.415
G1 X-9.227 Y44.041
G2 X-9.126 Y44.061 I0.528 J-2.444
G1 X-7.54 Y44.336
G2 X-7.516 Y44.34 I0.428 J-2.463
G1 X-5.93 Y44.6
G2 X-5.839 Y44.613 I0.403 J-2.467
G1 X-5.046 Y44.713
G2 X-4.949 Y44.723 I0.313 J-2.48
G1 X-4.156 Y44.792
G2 X-4.108 Y44.796 I0.216 J-2.491
G1 X-2.522 Y44.902
G2 X-2.51 Y44.903 I0.168 J-2.494
G1 X-1.717 Y44.952
G2 X-1.666 Y44.955 I0.156 J-2.495
G1 X-0.873 Y44.988
G2 X-0.766 Y44.991 I0.105 J-2.498
G1 X0.027 Y44.99
G2 X0.101 Y44.989 I-0.002 J-2.5
G1 X1.688 Y44.94
G2 X1.709 I-0.076 J-2.499
G1 X3.295 Y44.878
G2 X3.417 Y44.87 I-0.098 J-2.498
G1 X4.211 Y44.8
G2 X4.315 Y44.788 I-0.22 J-2.49
G1 X6.363 Y44.52
G2 X6.38 Y44.518 I-0.325 J-2.479
G1 X7.504 Y44.363
G2 X7.599 Y44.348 I-0.342 J-2.477
G1 X8.392 Y44.207
G2 X8.488 Y44.188 I-0.436 J-2.462
G1 X9.281 Y44.016
G2 X9.328 Y44.005 I-0.532 J-2.443
G1 X11.708 Y43.438
G2 X11.782 Y43.419 I-0.58 J-2.432
G1 X12.575 Y43.204
G2 X12.687 Y43.171 I-0.654 J-2.413
G1 X13.731 Y42.834
G2 X13.785 Y42.816 I-0.766 J-2.38
G1 X16.069 Y42.023
G2 X16.145 Y41.995 I-0.82 J-2.362
G1 X16.784 Y41.75
G2 X16.874 Y41.713 I-0.897 J-2.333
G1 X17.667 Y41.372
G2 X17.725 Y41.346 I-0.988 J-2.297
G1 X19.311 Y40.616
G2 X19.322 Y40.611 I-1.045 J-2.271
G1 X20.115 Y40.241
G2 X20.185 Y40.207 I-1.056 J-2.266
G1 X20.978 Y39.807
G2 X21.077 Y39.754 I-1.126 J-2.232
G1 X21.87 Y39.308
G2 X21.918 Y39.281 I-1.226 J-2.179
G1 X24.341 Y37.847
G2 X24.459 Y37.772 I-1.273 J-2.151
G1 X25.209 Y37.269
G2 X25.276 Y37.222 I-1.392 J-2.076
G1 X26.069 Y36.652
G2 X26.094 Y36.635 I-1.459 J-2.03
G1 X27.866 Y35.328
G2 X27.951 Y35.262 I-1.484 J-2.012
G1 X28.558 Y34.773
G2 X28.63 Y34.712 I-1.568 J-1.947
G1 X29.424 Y34.022
G2 X29.448 Y34 I-1.641 J-1.886
G1 X31.035 Y32.582
G2 X31.131 Y32.492 I-1.666 J-1.864
G1 X31.924 Y31.704
G2 X31.953 Y31.674 I-1.762 J-1.773
G1 X32.518 Y31.093
G2 X32.566 Y31.042 I-1.792 J-1.744
G1 X33.296 Y30.249
G2 X33.325 Y30.218 I-1.84 J-1.693
G1 X34.409 Y28.999
G2 X34.532 Y28.849 I-1.868 J-1.661
G1 X37.065 Y25.512
G2 X37.161 Y25.375 I-1.991 J-1.511
G1 X37.296 Y25.172
G2 X37.341 Y25.1 I-2.088 J-1.375
G1 X39.433 Y21.674
G2 X39.549 Y21.462 I-2.134 J-1.303
G1 X40.58 Y19.335
X40.583 Y19.329
X41.347 Y17.742
G2 X41.377 Y17.678 I-2.253 J-1.084
G1 X41.465 Y17.48
G2 X41.533 Y17.312 I-2.282 J-1.02
G1 X42.972 Y13.346
G2 X43.044 Y13.111 I-2.35 J-0.853
G1 X43.554 Y11.113
G3 X43.627 Y11.119 I0.036 J0.009
G1 X43.635 Y11.248
X43.247 Y12.765
X43.179 Y12.874
G3 X43.112 Y12.845 I-0.031 J-0.02
G1 X43.791 Y10.183 Z-17 F333.3
X44.006 Y9.343 F1000
G2 X44.019 Y9.286 I-2.422 J-0.618
G1 X44.111 Y8.889
G2 X44.146 Y8.702 I-2.436 J-0.561
G1 X44.744 Y4.735
G2 X44.756 Y4.644 I-2.472 J-0.373
G1 X44.779 Y4.446
G2 X44.792 Y4.288 I-2.484 J-0.281
G1 X44.997 Y0.123
G2 Y-0.123 I-2.497 J-0.123
G1 X44.792 Y-4.288
G2 X44.771 Y-4.507 I-2.497 J0.123
G1 X44.689 Y-5.102
G2 X44.684 Y-5.132 I-2.476 J0.342
G1 X44.146 Y-8.702
G2 X44.111 Y-8.889 I-2.472 J0.373
G1 X44.019 Y-9.286
G2 X44.006 Y-9.343 I-2.436 J0.561
G1 X43.044 Y-13.111
G2 X42.972 Y-13.346 I-2.422 J0.618
G1 X41.533 Y-17.312
G2 X41.442 Y-17.531 I-2.35 J0.853
G1 X40.971 Y-18.523
G2 X40.965 Y-18.536 I-2.259 J1.072
G1 X39.819 Y-20.915
G2 X39.807 Y-20.94 I-2.253 J1.084
G1 X39.539 Y-21.481
G2 X39.433 Y-21.674 I-2.24 J1.109
G1 X37.341 Y-25.1
G2 X37.295 Y-25.172 I-2.134 J1.303
G1 X37.161 Y-25.375
G2 X37.065 Y-25.512 I-2.088 J1.375
G1 X34.532 Y-28.849
G2 X34.409 Y-28.999 I-1.991 J1.511
G1 X33.325 Y-30.218
G2 X33.3 Y-30.245 I-1.868 J1.661
G1 X32.573 Y-31.039
G2 X32.516 Y-31.099 I-1.843 J1.689
G1 X31.738 Y-31.892
G2 X31.708 Y-31.923 I-1.786 J1.75
G1 X31.123 Y-32.499
G2 X31.042 Y-32.576 I-1.755 J1.781
G1 X30.249 Y-33.29
G2 X30.234 Y-33.304 I-1.674 J1.857
G1 X29.006 Y-34.393
G2 X28.966 Y-34.428 I-1.659 J1.87
G1 X28.607 Y-34.732
G2 X28.558 Y-34.773 I-1.618 J1.906
G1 X27.951 Y-35.262
G2 X27.863 Y-35.33 I-1.568 J1.947
G1 X25.704 Y-36.917
G2 X25.683 Y-36.932 I-1.481 J2.014
G1 X25.276 Y-37.224
G2 X25.203 Y-37.275 I-1.459 J2.03
G1 X24.41 Y-37.804
G2 X24.297 Y-37.874 I-1.386 J2.081
G1 X21.918 Y-39.283
G2 X21.866 Y-39.312 I-1.273 J2.151
G1 X21.073 Y-39.757
G2 X20.978 Y-39.807 I-1.222 J2.181
G1 X20.185 Y-40.207
G2 X20.109 Y-40.244 I-1.126 J2.232
G1 X17.73 Y-41.346
G2 X17.662 Y-41.376 I-1.05 J2.269
G1 X16.869 Y-41.715
G2 X16.77 Y-41.755 I-0.983 J2.299
G1 X15.977 Y-42.054
G2 X15.912 Y-42.078 I-0.883 J2.339
G1 X13.533 Y-42.903
G2 X13.466 Y-42.925 I-0.819 J2.362
G1 X12.673 Y-43.175
G2 X12.575 Y-43.204 I-0.752 J2.384
G1 X11.782 Y-43.419
G2 X11.709 Y-43.437 I-0.654 J2.413
G1 X9.33 Y-44.006
G2 X9.276 Y-44.018 I-0.581 J2.431
G1 X8.483 Y-44.189
G2 X8.392 Y-44.207 I-0.527 J2.444
G1 X7.599 Y-44.348
G2 X7.502 Y-44.363 I-0.436 J2.462
G1 X5.123 Y-44.689
G2 X5.091 Y-44.693 I-0.339 J2.477
G1 X4.298 Y-44.791
G2 X4.208 Y-44.801 I-0.307 J2.481
G1 X3.415 Y-44.87
G2 X3.294 Y-44.878 I-0.218 J2.49
G1 X0.914 Y-44.969
G2 X0.883 Y-44.97 I-0.096 J2.498
G1 X0.09 Y-44.991
G2 X0.022 Y-44.992 I-0.065 J2.499
G1 X-0.771 Y-44.991
G2 X-0.873 Y-44.988 I0.003 J2.5
G1 X-1.666 Y-44.955
G2 X-1.723 Y-44.952 I0.105 J2.498
G1 X-4.102 Y-44.798
G2 X-4.162 Y-44.793 I0.162 J2.495
G1 X-4.955 Y-44.723
G2 X-5.046 Y-44.713 I0.221 J2.49
G1 X-5.839 Y-44.613
G2 X-5.933 Y-44.599 I0.313 J2.48
G1 X-8.312 Y-44.207
G2 X-8.348 Y-44.201 I0.406 J2.467
G1 X-9.141 Y-44.058
G2 X-9.227 Y-44.041 I0.443 J2.46
G1 X-10.02 Y-43.87
G2 X-10.139 Y-43.841 I0.528 J2.444
G1 X-12.518 Y-43.203
G2 X-12.548 Y-43.195 I0.647 J2.415
G1 X-13.341 Y-42.972
G2 X-13.424 Y-42.947 I0.677 J2.407
G1 X-14.217 Y-42.694
G2 X-14.336 Y-42.653 I0.76 J2.382
G1 X-16.716 Y-41.759
G2 X-16.75 Y-41.746 I0.879 J2.34
G1 X-17.543 Y-41.434
G2 X-17.622 Y-41.402 I0.913 J2.327
G1 X-18.415 Y-41.059
G2 X-18.533 Y-41.004 I0.992 J2.295
G1 X-20.912 Y-39.825
G2 X-20.952 Y-39.804 I1.11 J2.24
G1 X-21.745 Y-39.393
G2 X-21.833 Y-39.346 I1.15 J2.22
G1 X-22.626 Y-38.893
G2 X-22.723 Y-38.835 I1.238 J2.172
G1 X-25.102 Y-37.332
G2 X-25.146 Y-37.304 I1.335 J2.114
G1 X-25.625 Y-36.987
G2 X-25.679 Y-36.95 I1.379 J2.085
G1 X-25.994 Y-36.73
G2 X-26.06 Y-36.682 I1.434 J2.048
G1 X-26.854 Y-36.087
G2 X-26.894 Y-36.056 I1.5 J2
G1 X-28.893 Y-34.491
G2 X-28.985 Y-34.416 I1.541 J1.969
G1 X-29.904 Y-33.622
G2 X-29.968 Y-33.566 I1.633 J1.893
G1 X-30.827 Y-32.772
G2 X-30.893 Y-32.709 I1.696 J1.836
G1 X-32.667 Y-30.946
G2 X-32.761 Y-30.847 I1.762 J1.773
G1 X-33.554 Y-29.967
G2 X-33.583 Y-29.935 I1.856 J1.674
G1 X-34.376 Y-29.025
G2 X-34.408 Y-28.987 I1.885 J1.642
G1 X-34.753 Y-28.575
G2 X-34.791 Y-28.528 I1.917 J1.605
G1 X-35.423 Y-27.735
G2 X-35.45 Y-27.701 I1.955 J1.558
G1 X-36.06 Y-26.908
G2 X-36.111 Y-26.84 I1.981 J1.525
G1 X-36.901 Y-25.738
G2 X-36.935 Y-25.689 I2.032 J1.457
G1 X-37.265 Y-25.205
G2 X-37.294 Y-25.162 I2.066 J1.408
G1 X-38.328 Y-23.576
G2 X-38.399 Y-23.46 I2.094 J1.365
G1 X-39.315 Y-21.873
G2 X-39.347 Y-21.816 I2.165 J1.249
G1 X-39.777 Y-21.023
G2 X-39.804 Y-20.971 I2.198 J1.192
G1 X-40.267 Y-20.068
G2 X-40.283 Y-20.037 I2.225 J1.14
G1 X-40.621 Y-19.353
G2 X-40.664 Y-19.262 I2.241 J1.109
G1 X-41.371 Y-17.676
G2 X-41.397 Y-17.615 I2.283 J1.018
G1 X-41.726 Y-16.822
G2 X-41.744 Y-16.778 I2.309 J0.958
G1 X-42.055 Y-15.984
G2 X-42.069 Y-15.947 I2.327 J0.913
G1 X-42.366 Y-15.154
G2 X-42.394 Y-15.074 I2.342 J0.876
G1 X-42.791 Y-13.892
G2 X-42.811 Y-13.831 I2.37 J0.796
G1 X-43.179 Y-12.633
G2 X-43.2 Y-12.562 I2.39 J0.735
G1 X-43.637 Y-10.976
G2 X-43.665 Y-10.862 I2.41 J0.664
G1 X-44.023 Y-9.275
G2 X-44.035 Y-9.22 I2.439 J0.55
G1 X-44.195 Y-8.427
G2 X-44.206 Y-8.366 I2.451 J0.494
G1 X-44.469 Y-6.874
G2 X-44.487 Y-6.758 I2.462 J0.434
G1 X-44.703 Y-5.078
G2 X-44.711 Y-5.012 I2.48 J0.319
G1 X-44.791 Y-4.219
G2 X-44.796 Y-4.162 I2.487 J0.253
G1 X-44.921 Y-2.575
G2 X-44.926 Y-2.483 I2.492 J0.195
G1 X-44.959 Y-1.69
G2 X-44.96 Y-1.649 I2.498 J0.103
G1 X-44.98 Y-0.856
G2 X-44.981 Y-0.817 I2.499 J0.062
G1 X-44.989 Y-0.024
G2 Y0.024 I2.5 J0.024
G1 X-44.981 Y0.817
G2 X-44.98 Y0.856 I2.5 J-0.024
G1 X-44.96 Y1.649
G2 X-44.959 Y1.69 I2.499 J-0.062
G1 X-44.926 Y2.483
G2 X-44.921 Y2.575 I2.498 J-0.103
G1 X-44.796 Y4.162
G2 X-44.791 Y4.219 I2.492 J-0.195
G1 X-44.711 Y5.012
G2 X-44.703 Y5.078 I2.487 J-0.253
G1 X-44.487 Y6.758
G2 X-44.469 Y6.874 I2.48 J-0.319
G1 X-44.206 Y8.366
G2 X-44.195 Y8.427 I2.462 J-0.434
G1 X-44.035 Y9.22
G2 X-44.023 Y9.276 I2.451 J-0.494
G1 X-43.653 Y10.915
G2 X-43.624 Y11.033 I2.439 J-0.55
G1 X-43.199 Y12.566
G2 X-43.179 Y12.633 I2.409 J-0.667
G1 X-42.811 Y13.831
G2 X-42.791 Y13.892 I2.39 J-0.735
G1 X-42.394 Y15.074
G2 X-42.362 Y15.163 I2.37 J-0.796
G1 X-41.966 Y16.209
G2 X-41.956 Y16.238 I2.338 J-0.885
G1 X-41.744 Y16.778
G2 X-41.726 Y16.822 I2.327 J-0.913
G1 X-41.397 Y17.615
G2 X-41.371 Y17.676 I2.309 J-0.958
G1 X-40.664 Y19.262
G2 X-40.619 Y19.358 I2.283 J-1.018
G1 X-40.224 Y20.151
G2 X-40.211 Y20.178 I2.238 J-1.113
G1 X-39.804 Y20.971
G2 X-39.777 Y21.023 I2.225 J-1.14
G1 X-39.347 Y21.816
G2 X-39.315 Y21.873 I2.198 J-1.192
G1 X-38.399 Y23.46
G2 X-38.328 Y23.576 I2.165 J-1.249
G1 X-37.294 Y25.162
G2 X-37.254 Y25.222 I2.094 J-1.365
G1 X-36.703 Y26.016
G2 X-36.679 Y26.049 I2.054 J-1.425
G1 X-36.107 Y26.846
G2 X-36.052 Y26.919 I2.03 J-1.459
G1 X-35.259 Y27.941
G2 X-35.239 Y27.967 I1.975 J-1.533
G1 X-34.791 Y28.528
G2 X-34.745 Y28.584 I1.955 J-1.558
G1 X-34.074 Y29.378
G2 X-34.04 Y29.417 I1.909 J-1.615
G1 X-33.34 Y30.21
G2 X-33.314 Y30.239 I1.875 J-1.654
G1 X-32.753 Y30.855
G2 X-32.667 Y30.946 I1.849 J-1.683
G1 X-30.893 Y32.709
G2 X-30.827 Y32.772 I1.762 J-1.773
G1 X-29.968 Y33.566
G2 X-29.904 Y33.622 I1.696 J-1.836
G1 X-28.985 Y34.416
G2 X-28.893 Y34.491 I1.633 J-1.893
G1 X-26.866 Y36.078
G2 X-26.824 Y36.11 I1.541 J-1.969
G1 X-26.059 Y36.683
G2 X-25.994 Y36.73 I1.499 J-2.001
G1 X-25.679 Y36.95
G2 X-25.625 Y36.987 I1.434 J-2.048
G1 X-25.146 Y37.304
G2 X-25.102 Y37.332 I1.379 J-2.085
G1 X-22.723 Y38.835
G2 X-22.626 Y38.893 I1.335 J-2.114
G1 X-21.833 Y39.346
G2 X-21.745 Y39.393 I1.238 J-2.172
G1 X-20.952 Y39.804
G2 X-20.912 Y39.825 I1.15 J-2.22
G1 X-18.533 Y41.004
G2 X-18.415 Y41.059 I1.11 J-2.24
G1 X-17.622 Y41.402
G2 X-17.531 Y41.439 I0.992 J-2.295
G1 X-16.096 Y41.993
G2 X-16.072 Y42.003 I0.901 J-2.332
G1 X-14.334 Y42.654
G2 X-14.217 Y42.694 I0.877 J-2.341
G1 X-13.424 Y42.947
G2 X-13.328 Y42.976 I0.76 J-2.382
G1 X-11.741 Y43.412
G2 X-11.724 Y43.417 I0.664 J-2.41
G1 X-10.138 Y43.841
G2 X-10.02 Y43.87 I0.646 J-2.415
G1 X-9.227 Y44.041
G2 X-9.126 Y44.061 I0.528 J-2.444
G1 X-7.54 Y44.336
G2 X-7.516 Y44.34 I0.428 J-2.463
G1 X-5.93 Y44.6
G2 X-5.839 Y44.613 I0.403 J-2.467
G1 X-5.046 Y44.713
G2 X-4.955 Y44.723 I0.313 J-2.48
G1 X-4.162 Y44.793
G2 X-4.102 Y44.798 I0.221 J-2.49
G1 X-1.723 Y44.952
G2 X-1.666 Y44.955 I0.162 J-2.495
G1 X-0.873 Y44.988
G2 X-0.771 Y44.991 I0.105 J-2.498
G1 X0.022 Y44.992
G2 X0.104 Y44.99 I0.003 J-2.5
G1 X1.69 Y44.94
G2 X1.709 I-0.079 J-2.499
G1 X3.295 Y44.878
G2 X3.415 Y44.87 I-0.098 J-2.498
G1 X4.208 Y44.801
G2 X4.311 Y44.789 I-0.218 J-2.49
G1 X5.897 Y44.584
G2 X5.918 Y44.581 I-0.321 J-2.479
G1 X7.504 Y44.363
G2 X7.599 Y44.348 I-0.342 J-2.477
G1 X8.392 Y44.207
G2 X8.483 Y44.189 I-0.436 J-2.462
G1 X9.276 Y44.018
G2 X9.33 Y44.006 I-0.527 J-2.444
G1 X11.709 Y43.437
G2 X11.782 Y43.419 I-0.581 J-2.431
G1 X12.575 Y43.204
G2 X12.684 Y43.172 I-0.654 J-2.413
G1 X13.733 Y42.836
G2 X13.792 Y42.816 I-0.763 J-2.381
G1 X16.07 Y42.022
G2 X16.145 Y41.995 I-0.822 J-2.361
G1 X16.784 Y41.75
G2 X16.869 Y41.715 I-0.897 J-2.333
G1 X17.662 Y41.376
G2 X17.73 Y41.346 I-0.983 J-2.299
G1 X20.109 Y40.244
G2 X20.185 Y40.207 I-1.05 J-2.269
G1 X20.978 Y39.807
G2 X21.073 Y39.757 I-1.126 J-2.232
G1 X21.866 Y39.312
G2 X21.919 Y39.282 I-1.222 J-2.181
G1 X24.342 Y37.846
G2 X24.455 Y37.774 I-1.275 J-2.151
G1 X25.205 Y37.274
G2 X25.278 Y37.223 I-1.388 J-2.079
G1 X26.071 Y36.652
G2 X26.094 Y36.635 I-1.461 J-2.028
G1 X27.866 Y35.327
G2 X27.951 Y35.262 I-1.484 J-2.012
G1 X28.558 Y34.773
G2 X28.627 Y34.715 I-1.568 J-1.947
G1 X29.42 Y34.027
G2 X29.444 Y34.007 I-1.638 J-1.889
G1 X30.796 Y32.804
G2 X30.836 Y32.767 I-1.662 J-1.868
G1 X31.07 Y32.55
G2 X31.131 Y32.492 I-1.702 J-1.831
G1 X31.924 Y31.704
G2 X31.948 Y31.679 I-1.762 J-1.773
G1 X32.517 Y31.098
G2 X32.58 Y31.031 I-1.787 J-1.749
G1 X33.598 Y29.911
G2 X33.616 Y29.891 I-1.85 J-1.681
G1 X34.409 Y28.999
G2 X34.532 Y28.849 I-1.868 J-1.661
G1 X37.065 Y25.512
G2 X37.161 Y25.375 I-1.991 J-1.511
G1 X37.295 Y25.172
G2 X37.341 Y25.1 I-2.088 J-1.375
G1 X39.433 Y21.674
G2 X39.549 Y21.462 I-2.134 J-1.303
G1 X40.58 Y19.335
X40.583 Y19.329
X41.347 Y17.742
G2 X41.377 Y17.678 I-2.253 J-1.084
G1 X41.465 Y17.48
G2 X41.533 Y17.312 I-2.282 J-1.02
G1 X42.972 Y13.346
G2 X43.044 Y13.111 I-2.35 J-0.853
G1 X43.791 Y10.183
G3 X43.925 Y10.114 I0.097 J0.025
G1 X50.345 Y12.61
G3 X50.406 Y12.725 I-0.036 J0.093
G1 X50.378 Y12.854
X50.376 Y12.861
X49.207 Y16.788
X49.204 Y16.795
X48.69 Y18.135
X47.683 Y20.715
X47.681 Y20.72
X47.489 Y21.147
X45.969 Y24.255
X45.605 Y24.956
X45.602 Y24.961
X43.773 Y28.03
X43.317 Y28.736
X41.119 Y31.814
X40.914 Y32.075
X38.581 Y34.83
X37.877 Y35.594
X35.57 Y37.901
X34.833 Y38.579
X32.093 Y40.9
X31.832 Y41.106
X31.828 Y41.109
X28.756 Y43.303
X28.049 Y43.761
X24.978 Y45.591
X24.973 Y45.594
X24.275 Y45.96
X21.164 Y47.481
X20.753 Y47.668
X20.747 Y47.67
X16.838 Y49.192
X16.83 Y49.194
X12.88 Y50.37
X12.873 Y50.372
X12.185 Y50.526
X9.058 Y51.182
X8.368 Y51.31
X8.362 Y51.311
X4.543 Y51.787
X4.537 Y51.788
X3.851 Y51.836
X0.028 Y51.995
X0.02
X-3.806 Y51.838
X-4.494 Y51.793
X-4.499
X-8.319 Y51.316
X-8.324
X-9.012 Y51.191
X-12.14 Y50.535
X-12.829 Y50.385
X-12.836 Y50.383
X-16.83 Y49.194
X-16.838 Y49.192
X-20.751 Y47.669
X-20.756 Y47.667
X-21.115 Y47.505
X-24.229 Y45.982
X-24.929 Y45.621
X-24.934 Y45.618
X-28.002 Y43.789
X-28.708 Y43.337
X-31.784 Y41.14
X-32.096 Y40.897
X-34.832 Y38.579
X-35.519 Y37.951
X-37.917 Y35.553
X-38.576 Y34.836
X-40.867 Y32.132
X-41.12 Y31.813
X-41.123 Y31.809
X-43.311 Y28.745
X-43.314 Y28.74
X-43.844 Y27.91
X-45.602 Y24.961
X-45.605 Y24.956
X-45.968 Y24.258
X-47.497 Y21.131
X-47.638 Y20.83
X-47.641 Y20.824
X-49.157 Y16.939
X-49.159 Y16.931
X-50.374 Y12.866
X-50.376 Y12.859
X-50.695 Y11.379
X-51.186 Y9.038
X-51.313 Y8.348
Y8.342
X-51.79 Y4.522
Y4.516
X-51.837 Y3.83
X-51.996 Y0.004
Y-0.004
X-51.837 Y-3.828
X-51.79 Y-4.516
Y-4.522
X-51.423 Y-7.466
X-51.313 Y-8.342
Y-8.348
X-51.186 Y-9.035
X-50.53 Y-12.164
X-50.378 Y-12.852
X-50.376 Y-12.859
X-49.159 Y-16.931
X-49.157 Y-16.939
X-47.646 Y-20.811
X-47.643 Y-20.818
X-47.115 Y-21.911
X-45.969 Y-24.255
X-45.605 Y-24.956
X-45.602 Y-24.961
X-43.773 Y-28.03
X-43.317 Y-28.736
X-41.123 Y-31.809
X-41.12 Y-31.813
X-40.869 Y-32.129
X-38.553 Y-34.863
X-37.83 Y-35.64
X-35.523 Y-37.947
X-34.806 Y-38.601
X-32.099 Y-40.894
X-31.788 Y-41.138
X-28.717 Y-43.33
X-28.713 Y-43.334
X-27.856 Y-43.877
X-24.934 Y-45.618
X-24.929 Y-45.621
X-24.231 Y-45.981
X-21.118 Y-47.503
X-20.756 Y-47.667
X-20.751 Y-47.669
X-16.838 Y-49.192
X-16.83 Y-49.194
X-12.843 Y-50.381
X-12.836 Y-50.383
X-10.562 Y-50.867
X-9.014 Y-51.191
X-8.324 Y-51.316
X-8.319
X-4.499 Y-51.793
X-4.494
X-3.808 Y-51.838
X0.02 Y-51.995
X0.028
X3.849 Y-51.837
X4.537 Y-51.788
X4.543 Y-51.787
X8.362 Y-51.311
X8.368 Y-51.31
X9.056 Y-51.182
X12.184 Y-50.526
X12.873 Y-50.372
X12.88 Y-50.37
X16.83 Y-49.194
X16.838 Y-49.192
X20.747 Y-47.67
X20.753 Y-47.668
X21.162 Y-47.482
X24.273 Y-45.961
X24.973 Y-45.594
X24.978 Y-45.591
X28.046 Y-43.763
X28.752 Y-43.305
X31.828 Y-41.109
X31.832 Y-41.106
X32.09 Y-40.902
X34.846 Y-38.567
X35.609 Y-37.861
X37.916 Y-35.554
X38.594 Y-34.815
X40.912 Y-32.078
X41.116 Y-31.818
X43.315 Y-28.739
X43.771 Y-28.033
X45.602 Y-24.961
X45.605 Y-24.956
X45.968 Y-24.258
X47.488 Y-21.15
X47.681 Y-20.72
X47.683 Y-20.715
X48.996 Y-17.35
X49.202 Y-16.803
X49.204 Y-16.796
X50.374 Y-12.868
X50.376 Y-12.86
X50.715 Y-11.285
X51.186 Y-9.038
X51.313 Y-8.348
Y-8.342
X51.79 Y-4.522
Y-4.516
X51.837 Y-3.83
X51.996 Y-0.004
Y0.004
X51.837 Y3.828
X51.79 Y4.516
Y4.522
X51.313 Y8.342
Y8.348
X51.186 Y9.035
X50.53 Y12.164
X50.406 Y12.725
G3 X50.337 Y12.734 I-0.036 J-0.008
G1 X50.267 Y12.594
X43.944 Y-10.042
G2 X43.92 Y-10.067 I-0.036 J0.01
G1 X43.832 Y-10.095
G3 X43.807 Y-10.121 I0.011 J-0.035
G1 X43.045 Y-13.111 Z-18.123 F333.3
G2 X42.972 Y-13.346 Z-18.213 I-2.422 J0.618
G1 X41.533 Y-17.312 Z-19.748
G2 X41.442 Y-17.531 Z-19.835 I-2.35 J0.853
G1 X40.971 Y-18.523 Z-20.234
G2 X40.965 Y-18.535 Z-20.239 I-2.259 J1.072
G1 X40.058 Y-20.419 Z-21
X39.819 Y-20.915 F1000
G2 X39.807 Y-20.94 I-2.253 J1.084
G1 X39.539 Y-21.481
G2 X39.433 Y-21.674 I-2.24 J1.11
G1 X37.341 Y-25.1
G2 X37.295 Y-25.173 I-2.134 J1.303
G1 X37.161 Y-25.376
G2 X37.065 Y-25.512 I-2.087 J1.376
G1 X34.532 Y-28.849
G2 X34.409 Y-28.999 I-1.991 J1.511
G1 X32.822 Y-30.782
G2 X32.74 Y-30.871 I-1.868 J1.662
G1 X31.738 Y-31.893
G2 X31.7 Y-31.931 I-1.785 J1.75
G1 X30.888 Y-32.724
G2 X30.803 Y-32.804 I-1.747 J1.788
G1 X29.02 Y-34.39
G2 X28.935 Y-34.462 I-1.662 J1.868
G1 X27.959 Y-35.256
G2 X27.866 Y-35.327 I-1.577 J1.94
G1 X25.716 Y-36.914
G2 X25.683 Y-36.938 I-1.484 J2.012
G1 X25.268 Y-37.234
G2 X25.197 Y-37.283 I-1.451 J2.036
G1 X24.404 Y-37.808
G2 X24.3 Y-37.873 I-1.38 J2.085
G1 X21.673 Y-39.432
G2 X21.582 Y-39.483 I-1.276 J2.15
G1 X21.036 Y-39.777
G2 X20.978 Y-39.807 I-1.184 J2.202
G1 X20.185 Y-40.207
G2 X20.115 Y-40.241 I-1.126 J2.232
G1 X17.735 Y-41.35
G2 X17.644 Y-41.391 I-1.056 J2.266
G1 X16.851 Y-41.722
G2 X16.77 Y-41.755 I-0.965 J2.306
G1 X15.977 Y-42.054
G2 X15.919 Y-42.076 I-0.883 J2.339
G1 X13.539 Y-42.908
G2 X13.446 Y-42.938 I-0.825 J2.36
G1 X12.653 Y-43.181
G2 X12.575 Y-43.204 I-0.732 J2.39
G1 X11.782 Y-43.419
G2 X11.714 Y-43.436 I-0.654 J2.413
G1 X9.335 Y-44.01
G2 X9.26 Y-44.027 I-0.587 J2.43
G1 X8.467 Y-44.193
G2 X8.392 Y-44.207 I-0.511 J2.447
G1 X7.599 Y-44.348
G2 X7.504 Y-44.363 I-0.436 J2.462
G1 X5.125 Y-44.691
G2 X5.083 Y-44.696 I-0.342 J2.477
G1 X4.29 Y-44.792
G2 X4.208 Y-44.801 I-0.3 J2.482
G1 X3.415 Y-44.87
G2 X3.291 Y-44.878 I-0.218 J2.49
G1 X0.119 Y-44.997
G2 X0 Y-44.998 I-0.094 J2.498
G1 X-0.793 Y-44.99
G2 X-0.873 Y-44.988 I0.025 J2.5
G1 X-1.666 Y-44.955
G2 X-1.717 Y-44.952 I0.105 J2.498
G1 X-4.096 Y-44.804
G2 X-4.18 Y-44.797 I0.156 J2.495
G1 X-4.973 Y-44.721
G2 X-5.046 Y-44.713 I0.24 J2.488
G1 X-5.839 Y-44.613
G2 X-5.93 Y-44.6 I0.313 J2.48
G1 X-8.309 Y-44.211
G2 X-8.358 Y-44.202 I0.403 J2.467
G1 X-9.151 Y-44.057
G2 X-9.227 Y-44.041 I0.452 J2.459
G1 X-10.02 Y-43.87
G2 X-10.138 Y-43.841 I0.528 J2.444
G1 X-12.517 Y-43.205
G2 X-12.544 Y-43.197 I0.646 J2.415
G1 X-13.337 Y-42.975
G2 X-13.43 Y-42.947 I0.673 J2.408
G1 X-14.224 Y-42.692
G2 X-14.336 Y-42.653 I0.766 J2.38
G1 X-16.715 Y-41.759
G2 X-16.744 Y-41.749 I0.879 J2.34
G1 X-17.537 Y-41.44
G2 X-17.629 Y-41.402 I0.907 J2.329
G1 X-18.422 Y-41.056
G2 X-18.531 Y-41.005 I1 J2.292
G1 X-20.91 Y-39.828
G2 X-20.935 Y-39.815 I1.109 J2.241
G1 X-21.536 Y-39.51
G2 X-21.637 Y-39.455 I1.134 J2.228
G1 X-22.623 Y-38.895
G2 X-22.718 Y-38.838 I1.235 J2.174
G1 X-25.097 Y-37.344
G2 X-25.183 Y-37.287 I1.33 J2.117
G1 X-25.976 Y-36.742
G2 X-26.06 Y-36.682 I1.416 J2.061
G1 X-26.854 Y-36.087
G2 X-26.891 Y-36.058 I1.5 J2
G1 X-28.896 Y-34.494
G2 X-28.998 Y-34.41 I1.538 J1.971
G1 X-29.911 Y-33.617
G2 X-29.957 Y-33.576 I1.639 J1.887
G1 X-30.826 Y-32.783
G2 X-30.908 Y-32.705 I1.685 J1.847
G1 X-32.671 Y-30.943
G2 X-32.763 Y-30.847 I1.767 J1.769
G1 X-33.556 Y-29.965
G2 X-33.572 Y-29.947 I1.858 J1.672
G1 X-34.365 Y-29.048
G2 X-34.44 Y-28.96 I1.875 J1.654
G1 X-35.418 Y-27.742
G2 X-35.45 Y-27.701 I1.949 J1.566
G1 X-36.06 Y-26.908
G2 X-36.109 Y-26.842 I1.981 J1.525
G1 X-36.9 Y-25.742
G2 X-36.919 Y-25.715 I2.03 J1.459
G1 X-37.259 Y-25.229
G2 X-37.31 Y-25.153 I2.05 J1.432
G1 X-38.334 Y-23.566
G2 X-38.397 Y-23.463 I2.1 J1.356
G1 X-39.412 Y-21.71
G2 X-39.469 Y-21.608 I2.163 J1.253
G1 X-40.262 Y-20.078
G2 X-40.283 Y-20.037 I2.219 J1.151
G1 X-40.621 Y-19.353
G2 X-40.659 Y-19.272 I2.241 J1.109
G1 X-41.375 Y-17.686
G2 X-41.419 Y-17.583 I2.279 J1.028
G1 X-42.05 Y-15.996
G2 X-42.069 Y-15.947 I2.323 J0.925
G1 X-42.366 Y-15.154
G2 X-42.394 Y-15.074 I2.342 J0.876
G1 X-42.927 Y-13.488
G2 X-42.96 Y-13.382 I2.37 J0.796
G1 X-43.416 Y-11.795
G2 X-43.427 Y-11.756 I2.403 J0.69
G1 X-43.64 Y-10.963
G2 X-43.664 Y-10.868 I2.414 J0.651
G1 X-44.026 Y-9.282
G2 X-44.042 Y-9.207 I2.437 J0.556
G1 X-44.198 Y-8.414
G2 X-44.206 Y-8.366 I2.453 J0.482
G1 X-44.47 Y-6.874
G2 X-44.487 Y-6.758 I2.462 J0.434
G1 X-44.703 Y-5.078
G2 X-44.709 Y-5.029 I2.48 J0.319
G1 X-44.795 Y-4.236
G2 X-44.803 Y-4.153 I2.485 J0.27
G1 X-44.921 Y-2.566
G2 X-44.926 Y-2.483 I2.493 J0.187
G1 X-44.959 Y-1.69
G2 X-44.961 Y-1.644 I2.498 J0.103
G1 X-44.997 Y-0.058
G2 Y0.058 I2.499 J0.058
G1 X-44.961 Y1.644
G2 X-44.959 Y1.69 I2.499 J-0.058
G1 X-44.926 Y2.483
G2 X-44.921 Y2.566 I2.498 J-0.103
G1 X-44.803 Y4.153
G2 X-44.795 Y4.236 I2.493 J-0.187
G1 X-44.709 Y5.029
G2 X-44.703 Y5.078 I2.485 J-0.27
G1 X-44.487 Y6.758
G2 X-44.47 Y6.874 I2.48 J-0.319
G1 X-44.206 Y8.366
G2 X-44.198 Y8.414 I2.462 J-0.434
G1 X-44.042 Y9.207
G2 X-44.026 Y9.282 I2.453 J-0.482
G1 X-43.652 Y10.921
G2 X-43.624 Y11.033 I2.437 J-0.556
G1 X-43.199 Y12.566
G2 X-43.189 Y12.601 I2.409 J-0.667
G1 X-42.956 Y13.395
G2 X-42.927 Y13.488 I2.399 J-0.703
G1 X-42.394 Y15.074
G2 X-42.362 Y15.163 I2.37 J-0.796
G1 X-41.966 Y16.209
G2 X-41.95 Y16.252 I2.338 J-0.885
G1 X-41.418 Y17.585
G2 X-41.375 Y17.686 I2.322 J-0.927
G1 X-40.659 Y19.272
G2 X-40.619 Y19.358 I2.279 J-1.028
G1 X-40.224 Y20.151
G2 X-40.205 Y20.189 I2.238 J-1.113
G1 X-39.468 Y21.609
G2 X-39.412 Y21.71 I2.219 J-1.151
G1 X-38.397 Y23.463
G2 X-38.334 Y23.566 I2.163 J-1.253
G1 X-37.31 Y25.153
G2 X-37.252 Y25.239 I2.1 J-1.356
G1 X-36.691 Y26.032
G2 X-36.679 Y26.049 I2.042 J-1.442
G1 X-36.107 Y26.846
G2 X-36.052 Y26.919 I2.03 J-1.459
G1 X-35.259 Y27.941
G2 X-35.232 Y27.976 I1.975 J-1.533
G1 X-34.438 Y28.961
G2 X-34.365 Y29.048 I1.948 J-1.567
G1 X-33.34 Y30.21
G2 X-33.317 Y30.236 I1.875 J-1.654
G1 X-32.756 Y30.854
G2 X-32.671 Y30.943 I1.852 J-1.68
G1 X-30.908 Y32.705
G2 X-30.826 Y32.783 I1.767 J-1.769
G1 X-29.957 Y33.576
G2 X-29.911 Y33.617 I1.685 J-1.847
G1 X-28.998 Y34.41
G2 X-28.896 Y34.494 I1.639 J-1.887
G1 X-26.862 Y36.08
G2 X-26.824 Y36.11 I1.538 J-1.971
G1 X-26.059 Y36.683
G2 X-25.976 Y36.742 I1.499 J-2.001
G1 X-25.183 Y37.287
G2 X-25.097 Y37.344 I1.416 J-2.061
G1 X-22.718 Y38.838
G2 X-22.623 Y38.895 I1.33 J-2.117
G1 X-21.637 Y39.455
G2 X-21.52 Y39.518 I1.235 J-2.174
G1 X-19.334 Y40.611
G2 X-19.316 Y40.62 I1.118 J-2.236
G1 X-18.523 Y41.009
G2 X-18.422 Y41.056 I1.101 J-2.245
G1 X-17.629 Y41.402
G2 X-17.525 Y41.444 I1 J-2.292
G1 X-15.939 Y42.053
G2 X-15.919 Y42.06 I0.896 J-2.334
G1 X-14.333 Y42.654
G2 X-14.224 Y42.692 I0.876 J-2.341
G1 X-13.43 Y42.947
G2 X-13.324 Y42.979 I0.766 J-2.38
G1 X-11.738 Y43.413
G2 X-11.724 Y43.417 I0.66 J-2.411
G1 X-10.138 Y43.841
G2 X-10.02 Y43.87 I0.646 J-2.415
G1 X-9.227 Y44.041
G2 X-9.151 Y44.057 I0.528 J-2.444
G1 X-8.358 Y44.202
G2 X-8.309 Y44.211 I0.452 J-2.459
G1 X-5.93 Y44.6
G2 X-5.839 Y44.613 I0.403 J-2.467
G1 X-5.046 Y44.713
G2 X-4.973 Y44.721 I0.313 J-2.48
G1 X-4.18 Y44.797
G2 X-4.096 Y44.804 I0.24 J-2.488
G1 X-1.717 Y44.952
G2 X-1.666 Y44.955 I0.156 J-2.495
G1 X-0.873 Y44.988
G2 X-0.793 Y44.99 I0.105 J-2.498
G1 X0 Y44.998
G2 X0.119 Y44.997 I0.025 J-2.5
G1 X3.291 Y44.878
G2 X3.415 Y44.87 I-0.094 J-2.498
G1 X4.208 Y44.801
G2 X4.29 Y44.792 I-0.218 J-2.49
G1 X5.083 Y44.696
G2 X5.125 Y44.691 I-0.3 J-2.482
G1 X7.504 Y44.363
G2 X7.599 Y44.348 I-0.342 J-2.477
G1 X8.392 Y44.207
G2 X8.467 Y44.193 I-0.436 J-2.462
G1 X9.26 Y44.027
G2 X9.335 Y44.01 I-0.511 J-2.447
G1 X11.714 Y43.436
G2 X11.782 Y43.419 I-0.587 J-2.43
G1 X12.575 Y43.204
G2 X12.653 Y43.181 I-0.654 J-2.413
G1 X13.446 Y42.938
G2 X13.539 Y42.908 I-0.732 J-2.39
G1 X16.074 Y42.021
G2 X16.145 Y41.995 I-0.825 J-2.36
G1 X16.784 Y41.75
G2 X16.851 Y41.722 I-0.897 J-2.333
G1 X17.644 Y41.391
G2 X17.735 Y41.35 I-0.965 J-2.306
G1 X20.115 Y40.241
G2 X20.185 Y40.207 I-1.056 J-2.266
G1 X20.978 Y39.807
G2 X21.036 Y39.777 I-1.126 J-2.232
G1 X21.582 Y39.483
G2 X21.674 Y39.431 I-1.184 J-2.202
G1 X24.344 Y37.845
G2 X24.449 Y37.779 I-1.277 J-2.149
G1 X25.199 Y37.281
G2 X25.284 Y37.222 I-1.382 J-2.083
G1 X26.077 Y36.648
G2 X26.094 Y36.635 I-1.467 J-2.024
G1 X27.866 Y35.327
G2 X27.959 Y35.256 I-1.484 J-2.012
G1 X28.935 Y34.462
G2 X29.02 Y34.39 I-1.577 J-1.94
G1 X30.803 Y32.804
G2 X30.896 Y32.717 I-1.662 J-1.868
G1 X31.916 Y31.711
G2 X31.948 Y31.68 I-1.755 J-1.781
G1 X32.741 Y30.87
G2 X32.822 Y30.782 I-1.786 J-1.749
G1 X34.409 Y28.999
G2 X34.532 Y28.849 I-1.868 J-1.662
G1 X37.065 Y25.512
G2 X37.161 Y25.376 I-1.991 J-1.511
G1 X37.295 Y25.173
G2 X37.341 Y25.1 I-2.087 J-1.376
G1 X39.433 Y21.674
G2 X39.548 Y21.464 I-2.134 J-1.303
G1 X40.341 Y19.832
X40.345 Y19.824
X41.347 Y17.742
G2 X41.377 Y17.678 I-2.253 J-1.084
G1 X41.465 Y17.48
G2 X41.533 Y17.312 I-2.282 J-1.02
G1 X42.972 Y13.346
G2 X43.045 Y13.111 I-2.35 J-0.853
G1 X44.006 Y9.343
G2 X44.019 Y9.286 I-2.422 J-0.618
G1 X44.111 Y8.89
G2 X44.146 Y8.702 I-2.436 J-0.561
G1 X44.744 Y4.735
G2 X44.756 Y4.644 I-2.472 J-0.373
G1 X44.779 Y4.446
G2 X44.792 Y4.288 I-2.484 J-0.282
G1 X44.997 Y0.123
G2 Y-0.123 I-2.497 J-0.123
G1 X44.792 Y-4.288
G2 X44.771 Y-4.507 I-2.497 J0.123
G1 X44.689 Y-5.102
G2 X44.684 Y-5.132 I-2.476 J0.342
G1 X44.146 Y-8.702
G2 X44.111 Y-8.89 I-2.472 J0.373
G1 X44.019 Y-9.286
G2 X44.006 Y-9.343 I-2.436 J0.561
G1 X43.045 Y-13.111
G2 X42.972 Y-13.346 I-2.422 J0.618
G1 X41.533 Y-17.312
G2 X41.442 Y-17.531 I-2.35 J0.853
G1 X40.971 Y-18.523
G2 X40.965 Y-18.535 I-2.259 J1.072
G1 X40.058 Y-20.419
G3 X40.187 Y-20.555 I0.09 J-0.043
G1 X41.337 Y-20.077
G3 X41.387 Y-20.032 I-0.038 J0.092
G1 X41.395 Y-20.016
X41.398 Y-20.01
X41.925 Y-18.835
X42.903 Y-16.516
X43.161 Y-15.813
X43.422 Y-15.071
X44.158 Y-12.774
X44.4 Y-11.892
X44.55 Y-11.312
X45.155 Y-8.632
X45.156 Y-8.627
X45.341 Y-7.542
X45.451 Y-6.793
X45.658 Y-5.238
X45.747 Y-4.506
X45.809 Y-3.774
X45.861 Y-3.031
X45.962 Y-0.74
Y0.736
X45.861 Y3.029
X45.809 Y3.773
X45.747 Y4.503
X45.659 Y5.237
X45.451 Y6.791
X45.341 Y7.54
X45.156 Y8.627
X45.155 Y8.632
X44.551 Y11.309
X44.361 Y12.044
X44.16 Y12.767
X43.423 Y15.068
X43.162 Y15.81
X42.897 Y16.53
X41.926 Y18.832
X41.398 Y20.01
X41.395 Y20.016
X40.02 Y22.604
X39.622 Y23.321
X39.62 Y23.326
X39.154 Y24.074
X38.167 Y25.597
X37.615 Y26.428
X37.168 Y27.063
X37.165 Y27.067
X35.346 Y29.387
X34.781 Y30.082
X34.776 Y30.087
X32.324 Y32.708
X32.158 Y32.876
X32.154 Y32.88
X31.659 Y33.332
X30.092 Y34.734
X29.352 Y35.38
X28.457 Y36.096
X26.339 Y37.679
X26.335 Y37.682
X25.332 Y38.354
X24.089 Y39.129
X22.864 Y39.879
X21.857 Y40.437
X19.569 Y41.591
X18.086 Y42.261
X15.808 Y43.161
X14.327 Y43.68
X11.925 Y44.391
X10.569 Y44.742
X10.564 Y44.743
X8.285 Y45.204
X6.792 Y45.468
X6.08 Y45.557
X3.752 Y45.809
X2.779 Y45.891
X2.326 Y45.91
X0.005 Y45.961
X-1.469 Y45.954
X-1.475 Y45.953
X-3.755 Y45.802
X-5.235 Y45.681
X-5.242
X-6.727 Y45.456
X-8.769 Y45.127
X-9.013 Y45.086
X-9.716 Y44.933
X-12.05 Y44.353
X-12.785 Y44.163
X-13.482 Y43.956
X-16.622 Y42.871
X-17.242 Y42.625
X-20.35 Y41.235
X-20.644 Y41.099
X-20.65 Y41.095
X-24.042 Y39.204
X-24.049 Y39.2
X-25.54 Y38.2
X-27.1 Y37.139
X-27.478 Y36.872
